<?xml version="1.0" encoding="UTF-8"?>
<map version="1.10" tiledversion="1.11.2" orientation="orthogonal" renderorder="right-down" width="50" height="20" tilewidth="64" tileheight="64" infinite="0" nextlayerid="17" nextobjectid="44">
 <properties>
  <property name="can_move" type="bool" value="true"/>
 </properties>
 <tileset firstgid="1" source="1024X1024.tsx"/>
 <tileset firstgid="321" source="bigTree.tsx"/>
 <imagelayer id="7" name="bg" locked="1" offsetx="-222" offsety="-136" parallaxx="0.2" parallaxy="0.93" repeatx="1">
  <image source="images/sky_bg1.jpg" width="1583" height="1280"/>
 </imagelayer>
 <layer id="9" name="mid_tree" width="50" height="20" parallaxx="0.6">
  <data encoding="csv">
0,0,0,0,0,0,0,0,0,0,0,0,0,0,0,0,0,0,0,0,0,0,0,0,0,0,0,0,0,0,0,0,0,0,0,0,0,0,0,0,0,0,0,0,0,0,0,0,0,0,
0,0,0,0,0,0,0,0,0,0,0,0,0,0,0,0,0,0,0,0,0,0,0,0,0,0,0,0,0,0,0,0,0,0,0,0,0,0,0,0,0,0,0,0,0,0,0,0,0,0,
0,0,0,0,0,0,0,0,0,0,0,0,0,0,0,0,0,0,0,0,0,0,0,0,0,0,0,0,0,0,0,0,0,0,0,0,0,0,0,0,0,0,0,0,0,0,0,0,0,0,
0,0,0,0,0,0,0,0,0,0,0,0,0,0,0,0,0,0,0,0,0,0,0,0,0,0,0,0,0,0,0,0,0,0,0,0,0,0,0,0,0,0,0,0,0,0,0,0,0,0,
0,0,0,0,0,0,0,0,0,0,0,0,0,0,0,0,0,0,0,0,0,0,0,0,0,0,0,0,0,0,0,0,0,0,0,0,0,0,0,0,0,0,0,0,0,0,0,0,0,0,
0,0,0,0,0,0,0,0,0,0,0,0,0,0,0,0,0,0,0,0,0,0,0,0,0,0,0,0,0,0,0,0,0,0,0,0,0,0,0,0,0,0,0,0,0,0,0,0,0,0,
0,0,0,0,0,0,0,0,0,0,0,0,0,0,0,0,0,0,0,0,0,0,0,0,0,0,0,0,0,0,0,0,0,0,0,0,0,0,0,0,0,0,0,0,0,0,0,0,0,0,
0,0,0,0,0,0,0,0,0,0,0,0,0,0,0,0,0,0,0,0,0,0,0,0,0,0,0,0,0,0,0,0,0,0,0,0,0,0,0,0,0,0,0,0,0,0,0,0,0,0,
0,0,0,0,0,0,0,0,0,0,0,0,0,0,0,0,0,0,0,0,0,0,0,0,0,0,0,0,0,0,0,0,0,0,0,0,0,0,0,0,0,0,0,0,0,0,0,0,0,0,
0,0,0,0,0,0,0,0,0,0,0,0,0,0,0,0,0,0,0,0,0,0,0,0,0,0,0,0,0,0,0,0,0,0,0,0,0,0,0,0,0,0,0,0,0,0,0,0,0,0,
0,0,0,0,0,0,0,0,0,0,0,0,0,0,0,0,0,0,0,0,0,0,0,0,0,0,0,0,0,0,0,0,0,0,0,0,0,0,0,0,0,0,0,0,0,0,0,0,0,0,
0,0,0,0,0,0,0,0,0,0,0,0,0,0,0,0,0,0,0,0,0,0,0,0,0,0,0,0,0,0,0,0,0,0,0,0,0,0,0,0,0,0,0,0,0,0,0,0,0,0,
0,0,0,0,0,0,0,0,0,0,0,0,0,0,0,0,0,0,0,0,0,0,0,0,0,0,0,0,0,0,0,0,0,0,0,0,0,0,0,0,0,0,0,0,0,0,0,0,0,0,
0,0,0,0,0,0,0,0,0,0,0,0,0,0,0,0,0,0,0,0,0,0,0,0,0,0,0,0,0,0,0,0,0,0,0,0,0,0,0,0,0,0,0,0,0,0,0,0,0,0,
0,0,0,0,0,0,0,0,0,0,0,0,0,0,0,0,0,0,0,0,0,0,0,0,0,0,0,0,0,0,0,0,0,0,0,0,0,0,0,0,0,0,0,0,0,0,0,0,0,0,
0,0,0,0,0,0,0,0,0,0,0,0,0,0,0,0,0,0,0,0,0,0,0,0,0,0,0,0,0,0,0,0,0,0,0,0,0,0,0,0,0,0,0,0,0,0,0,0,0,0,
0,0,0,0,0,0,0,0,0,0,0,0,0,0,0,0,0,0,0,0,0,0,0,0,0,0,0,0,0,0,0,0,0,0,0,0,0,0,0,0,0,0,0,0,0,0,0,0,0,0,
0,0,0,0,0,0,0,0,0,0,0,0,0,0,0,0,0,0,0,0,0,0,0,0,0,0,0,0,0,0,0,0,0,0,0,0,0,0,0,0,0,0,0,0,0,0,0,0,0,0,
0,0,0,0,0,0,0,0,0,0,0,0,0,0,0,0,0,0,0,0,0,0,0,0,0,0,0,0,0,0,0,0,0,0,0,0,0,0,0,0,0,0,0,0,0,0,0,0,0,0,
2147483969,0,0,0,0,0,0,0,0,0,0,0,0,0,0,321,0,0,0,0,0,0,0,0,0,0,0,0,0,0,321,0,0,0,0,0,0,0,0,0,0,0,0,0,0,0,0,0,0,0
</data>
 </layer>
 <layer id="11" name="mid_tree1" width="50" height="20" parallaxx="0.7">
  <data encoding="csv">
0,0,3221225616,3221225615,3221225614,3221225613,3221225612,0,0,0,0,0,0,0,0,0,0,0,0,44,45,46,47,48,0,0,0,0,1073741964,1073741965,1073741966,1073741967,1073741968,0,0,0,0,0,0,0,0,0,0,0,0,0,0,0,0,0,
0,0,3221225600,3221225599,3221225598,3221225597,3221225596,0,0,0,0,0,0,0,0,0,0,0,0,60,61,62,63,64,0,0,0,0,1073741948,1073741949,1073741950,1073741951,1073741952,0,0,0,0,0,0,0,0,0,0,0,0,0,0,0,0,0,
0,0,3221225584,3221225583,3221225582,3221225581,3221225580,0,0,0,1073741980,1073741981,1073741982,1073741983,1073741984,0,0,0,0,76,77,78,79,80,0,0,0,0,1073741932,1073741933,1073741934,1073741935,1073741936,0,0,0,0,0,0,0,0,0,0,0,0,0,0,0,0,0,
0,0,3221225568,3221225567,3221225566,3221225565,3221225564,0,0,0,1073741964,1073741965,1073741966,1073741967,1073741968,0,0,0,0,92,93,94,95,96,0,0,0,0,1073741916,1073741917,1073741918,1073741919,1073741920,0,0,0,0,0,0,0,0,0,0,0,0,0,0,0,0,0,
0,0,3221225552,3221225551,3221225550,3221225549,3221225548,0,0,0,1073741948,1073741949,1073741950,1073741951,1073741952,0,0,0,0,108,109,110,111,112,0,0,0,0,1073741900,1073741901,1073741902,1073741903,1073741904,0,0,0,0,0,0,0,0,0,0,0,0,0,0,0,0,0,
0,0,3221225536,3221225535,3221225534,3221225533,3221225532,0,0,0,1073741932,1073741933,1073741934,1073741935,1073741936,0,0,0,0,124,125,126,127,128,0,0,0,0,1073741884,1073741885,1073741886,1073741887,1073741888,0,0,0,0,0,0,0,0,0,0,0,0,0,0,0,0,0,
0,0,3221225520,3221225519,3221225518,3221225517,3221225516,0,0,0,1073741916,1073741917,1073741918,1073741919,1073741920,0,0,0,0,1073741948,1073741949,1073741950,1073741951,1073741952,0,0,0,0,1073741868,1073741869,1073741870,1073741871,1073741872,0,0,0,0,0,0,0,0,0,0,0,0,0,0,0,0,0,
0,0,3221225504,3221225503,3221225502,3221225501,3221225500,0,0,0,1073741900,1073741901,1073741902,1073741903,1073741904,0,0,0,0,1073741932,1073741933,1073741934,1073741935,1073741936,0,0,0,0,1073741852,1073741853,1073741854,1073741855,1073741856,0,0,0,0,0,0,0,0,0,0,0,0,0,0,0,0,0,
0,0,3221225488,3221225487,3221225486,3221225485,3221225484,0,0,0,1073741884,1073741885,1073741886,1073741887,1073741888,0,0,0,0,1073741916,1073741917,1073741918,1073741919,1073741920,0,0,0,0,1073741836,1073741837,1073741838,1073741839,1073741840,0,0,0,0,0,0,0,0,0,0,0,0,0,0,0,0,0,
0,0,2147483664,2147483663,2147483662,2147483661,2147483660,0,0,0,1073741868,1073741869,1073741870,1073741871,1073741872,0,0,0,0,1073741900,1073741901,1073741902,1073741903,1073741904,0,0,0,0,12,13,14,15,16,0,0,0,0,0,0,0,0,0,0,0,0,0,0,0,0,0,
0,0,2147483680,2147483679,2147483678,2147483677,2147483676,0,0,0,1073741852,1073741853,1073741854,1073741855,1073741856,0,0,0,0,1073741884,1073741885,1073741886,1073741887,1073741888,0,0,0,0,28,29,30,31,32,0,0,0,0,0,0,0,0,0,0,0,0,0,0,0,0,0,
0,0,2147483696,2147483695,2147483694,2147483693,2147483692,0,0,0,1073741836,1073741837,1073741838,1073741839,1073741840,0,0,0,0,1073741868,1073741869,1073741870,1073741871,1073741872,0,0,0,0,44,45,46,47,48,0,0,0,0,0,0,0,0,0,0,0,0,0,0,0,0,0,
0,0,2147483712,2147483711,2147483710,2147483709,2147483708,0,0,0,12,13,14,15,16,0,0,0,0,44,45,46,47,48,0,0,0,0,60,61,62,63,64,0,0,0,0,0,0,0,0,0,0,0,0,0,0,0,0,0,
0,0,2147483728,2147483727,2147483726,2147483725,2147483724,0,0,0,28,29,30,31,32,0,0,0,0,60,61,62,63,64,0,0,0,0,76,77,78,79,80,0,0,0,0,0,0,0,0,0,0,0,0,0,0,0,0,0,
0,0,2147483744,2147483743,2147483742,2147483741,2147483740,0,0,0,44,45,46,47,48,0,0,0,0,76,77,78,79,80,0,0,0,0,92,93,94,95,96,0,0,0,0,0,0,0,0,0,0,0,0,0,0,0,0,0,
0,0,2147483760,2147483759,2147483758,2147483757,2147483756,0,0,0,60,61,62,63,64,0,0,0,0,92,93,94,95,96,0,0,0,0,108,109,110,111,112,0,0,0,0,0,0,0,0,0,0,0,0,0,0,0,0,0,
0,0,2147483776,2147483775,2147483774,2147483773,2147483772,0,0,0,76,77,78,79,80,0,0,0,0,108,109,110,111,112,0,0,0,0,124,125,126,127,128,0,0,0,0,0,0,0,0,0,0,0,0,0,0,0,0,0,
0,0,2147483792,2147483791,2147483790,2147483789,2147483788,0,0,0,92,93,94,95,96,0,0,0,0,124,125,126,127,128,0,0,0,0,140,141,142,143,144,0,0,0,0,0,0,0,0,0,0,0,0,0,0,0,0,0,
0,0,2147483808,2147483807,2147483806,2147483805,2147483804,0,0,0,108,109,110,111,112,0,0,0,0,108,109,110,111,112,0,0,0,0,156,157,158,159,160,0,0,0,0,0,0,0,0,0,0,0,0,0,0,0,0,0,
0,0,156,157,158,159,160,0,0,0,124,125,126,127,128,0,0,0,0,124,125,126,127,128,0,0,0,0,172,173,174,175,176,0,0,0,0,0,0,0,0,0,0,0,0,0,0,0,0,0
</data>
 </layer>
 <layer id="12" name="md_bottom" width="50" height="20">
  <data encoding="csv">
0,0,0,0,0,0,0,0,0,0,0,0,0,0,0,0,0,0,0,0,0,0,0,0,0,0,0,0,0,0,0,0,0,0,0,0,0,0,0,0,0,0,0,0,0,0,0,0,0,0,
0,0,0,0,0,0,0,0,0,0,0,0,0,0,0,0,0,0,0,0,0,0,0,0,0,0,0,0,0,0,0,0,0,0,0,0,0,0,0,0,0,0,0,0,0,0,0,0,0,0,
0,0,0,0,0,0,0,0,0,0,0,0,0,0,0,0,0,0,0,0,0,0,0,0,0,0,0,0,0,0,0,0,0,0,0,0,0,0,0,0,0,0,0,0,0,0,0,0,0,0,
0,0,0,0,0,0,0,0,0,0,0,0,0,0,0,0,0,0,0,0,0,0,0,0,0,0,0,0,0,0,0,0,0,0,0,0,0,0,0,0,0,0,0,115,116,117,2147483765,2147483764,2147483763,0,
0,0,0,0,0,0,0,0,0,0,0,0,0,0,0,0,0,0,0,0,0,0,0,0,0,0,0,0,0,0,0,0,0,0,0,0,0,0,0,0,0,0,0,131,132,133,2147483781,2147483780,2147483779,0,
0,0,0,0,0,0,0,0,0,0,0,0,0,0,0,0,0,0,0,0,0,0,0,0,0,0,0,0,0,0,0,0,0,0,0,0,0,0,0,0,0,0,0,147,148,149,2147483797,2147483796,2147483795,0,
0,0,0,0,0,0,0,0,0,0,0,0,0,0,0,0,0,0,0,0,0,0,0,0,0,0,0,0,0,0,0,0,0,0,0,0,0,0,0,0,0,0,0,0,0,0,0,0,0,0,
0,0,0,0,0,0,0,0,0,0,0,0,0,0,0,0,0,0,0,0,0,0,0,0,0,0,0,0,0,0,0,0,0,0,0,0,0,0,0,0,0,0,0,0,0,0,0,0,0,0,
0,0,0,0,0,0,0,0,0,0,0,0,0,0,0,0,0,0,0,0,0,0,0,0,0,0,0,0,0,0,0,0,0,0,0,0,0,0,0,0,0,0,0,0,0,0,0,0,0,0,
0,0,0,0,0,0,0,0,0,0,0,0,0,0,0,0,0,0,0,0,0,0,0,0,0,0,0,0,0,0,0,0,0,0,0,0,0,0,0,0,0,0,0,0,0,0,0,0,0,0,
0,0,0,0,0,0,0,0,0,0,0,0,0,0,0,0,0,0,0,0,0,0,0,0,0,0,0,0,0,0,0,0,0,0,0,0,0,0,0,0,0,0,0,0,0,0,0,0,0,0,
0,0,0,0,0,0,0,0,0,0,0,0,0,0,0,0,0,0,0,0,0,0,0,0,0,0,0,0,0,0,0,0,0,0,0,0,0,0,0,0,0,0,0,0,0,0,0,0,0,0,
0,0,0,0,0,0,0,0,0,0,0,0,0,0,0,0,0,0,0,0,0,0,0,0,0,0,0,0,0,0,0,0,0,0,0,0,0,0,0,0,0,0,0,0,0,0,0,0,0,0,
0,0,0,0,0,0,0,0,0,0,0,0,0,0,0,0,0,0,0,0,0,0,0,0,0,0,0,0,0,0,0,0,0,0,0,0,0,0,0,0,0,0,0,0,0,0,0,0,0,0,
114,2147483762,2147483761,0,0,0,0,0,0,0,2147483766,2147483765,2147483764,116,117,2147483765,2147483764,2147483763,0,0,0,0,0,0,0,0,0,0,0,0,0,0,0,0,113,114,2147483762,2147483761,0,0,0,0,0,0,0,0,0,115,116,117,
130,2147483778,2147483777,0,0,0,0,0,0,0,2147483782,2147483781,2147483780,132,133,2147483781,2147483780,2147483779,0,0,0,0,0,0,0,0,0,0,0,0,0,0,0,0,129,130,2147483778,2147483777,0,0,0,0,0,0,0,0,0,131,132,133,
146,2147483794,2147483793,0,0,0,0,0,0,0,0,2147483797,2147483796,148,149,2147483797,2147483796,2147483795,0,0,0,0,0,0,0,0,0,0,0,0,0,0,0,0,145,146,2147483794,2147483793,0,0,0,0,0,0,0,0,0,147,148,149,
161,162,163,164,165,2147483813,2147483812,2147483811,2147483810,2147483809,161,162,163,164,165,2147483813,2147483812,2147483811,2147483810,2147483809,161,162,163,164,165,2147483813,2147483812,2147483811,2147483810,2147483809,161,162,163,164,165,2147483813,2147483812,2147483811,2147483810,2147483809,161,162,163,164,165,2147483813,2147483812,2147483811,2147483810,2147483809,
1073742001,1073742002,1073742003,1073742004,1073742005,1073742001,1073742002,1073742003,1073742004,1073742005,1073742001,1073742002,1073742003,1073742004,1073742005,3221225654,3221225653,3221225652,3221225651,3221225654,177,178,179,180,3221225649,161,162,163,164,1073742001,1073742002,1073742003,1073742004,3221225652,3221225651,3221225650,3221225649,1073742001,1073742002,1073742003,1073742004,3221225652,3221225651,3221225650,3221225649,1073742001,1073742002,1073742003,1073742004,3221225652,
1073741985,1073741986,1073741987,1073741988,1073741989,1073741985,1073741986,1073741987,1073741988,1073741989,1073741985,1073741986,1073741987,1073741988,1073741989,3221225638,3221225637,3221225636,3221225635,3221225638,3221225637,3221225636,3221225635,3221225634,3221225633,177,178,179,180,1073741985,1073741986,1073741987,1073741988,3221225636,3221225635,3221225634,3221225633,1073741985,1073741986,1073741987,1073741988,3221225636,3221225635,3221225634,3221225633,1073741985,1073741986,1073741987,1073741988,3221225636
</data>
 </layer>
 <layer id="5" name="move" width="50" height="20">
  <properties>
   <property name="block" type="bool" value="true"/>
   <property name="can_move" type="bool" value="true"/>
  </properties>
  <data encoding="csv">
0,0,0,0,0,0,0,0,0,0,0,0,0,0,0,0,0,0,0,0,0,0,0,0,0,0,0,0,0,0,0,0,0,0,0,0,0,0,0,0,0,0,0,0,0,0,0,0,0,0,
0,0,0,0,0,0,0,0,0,0,0,0,0,0,0,0,0,0,0,0,0,0,0,0,0,0,0,0,0,0,0,0,0,0,0,0,0,0,0,0,0,0,0,0,0,0,0,0,0,0,
0,0,0,0,0,0,0,0,0,0,0,0,0,0,0,0,0,0,0,0,0,0,0,0,0,0,0,0,0,0,0,0,0,0,0,0,0,0,0,0,0,0,0,0,0,0,0,0,0,0,
0,0,0,0,0,0,0,0,0,0,0,0,0,0,0,0,0,0,0,0,0,0,0,0,0,0,0,0,0,0,0,0,0,0,0,0,0,0,0,0,0,0,0,0,0,0,0,0,0,0,
0,0,0,0,0,0,0,0,0,0,0,0,0,0,0,0,0,0,0,0,0,0,0,0,0,0,0,0,0,0,0,0,0,0,0,0,0,0,0,0,0,0,0,0,0,0,0,0,0,0,
0,0,0,0,0,0,0,0,0,0,0,0,0,0,0,0,0,0,0,0,0,0,0,0,0,0,0,0,0,0,0,0,0,0,0,0,0,0,0,0,0,0,49,50,51,52,53,54,55,56,
0,0,0,0,0,0,0,0,0,0,0,0,0,0,0,0,0,0,0,0,0,0,0,0,0,0,0,0,0,0,0,0,0,0,0,0,0,0,0,0,0,0,65,66,67,68,69,70,71,72,
0,0,0,0,0,0,49,50,51,52,53,54,55,56,57,119,120,137,138,139,2,3,4,5,8,9,10,11,2147483659,2147483658,2147483657,2147483656,2147483652,2147483651,2147483650,2147483649,0,0,0,0,0,0,0,0,0,0,0,0,0,0,
0,0,0,0,0,0,65,66,67,68,69,70,71,72,73,74,75,0,0,17,18,19,20,21,24,25,26,27,2147483675,2147483674,2147483673,2147483672,2147483668,2147483667,2147483666,2147483665,0,0,0,0,0,0,0,0,0,0,0,0,0,0,
0,0,0,0,0,0,0,0,0,0,0,0,0,0,0,0,0,0,0,33,34,35,36,37,38,39,40,41,0,0,0,0,0,0,0,0,0,0,0,0,0,0,0,0,0,0,0,0,0,0,
0,0,0,0,0,0,0,0,0,0,0,0,0,0,0,0,0,0,0,0,0,0,0,0,0,0,0,0,0,0,0,0,0,0,0,0,0,0,0,0,0,0,0,0,0,0,0,0,0,0,
0,0,0,0,0,49,50,51,52,2147483700,2147483699,2147483698,58,0,0,0,0,0,0,0,0,0,0,0,0,0,0,0,0,0,0,0,0,0,0,49,50,2147483698,2147483697,0,0,0,0,0,0,0,0,0,0,0,
0,0,0,0,0,65,66,67,68,2147483716,2147483715,2147483714,74,0,0,0,0,0,0,0,0,2147483655,2147483654,6,135,136,137,2147483785,137,138,123,58,59,0,0,65,66,2147483714,2147483713,0,49,2147483698,2147483697,0,0,0,0,0,0,0,
0,0,0,0,0,0,0,0,0,0,0,0,0,0,0,0,0,0,0,0,0,2147483671,2147483670,22,23,0,0,0,0,2147483723,2147483722,74,75,0,0,0,0,0,0,0,65,2147483714,2147483713,0,0,0,0,0,0,0,
0,0,0,0,0,0,0,0,0,0,0,0,0,0,0,0,0,0,0,33,34,35,2147483683,2147483682,2147483681,0,0,0,0,0,0,0,0,0,0,0,0,0,0,0,0,0,0,0,0,0,0,0,0,0,
0,0,0,0,0,0,0,0,0,0,0,0,0,0,0,0,0,0,0,0,0,0,0,0,0,0,0,0,0,0,0,0,0,0,0,0,0,0,0,0,0,0,0,0,0,0,0,0,0,0,
81,82,83,84,85,86,87,88,89,90,2147483738,2147483737,2147483736,2147483735,2147483734,2147483733,2147483732,2147483731,2147483730,82,83,84,85,86,87,88,89,90,2147483738,2147483737,2147483736,2147483735,2147483734,2147483733,2147483732,2147483731,2147483730,82,83,84,85,86,87,88,89,90,2147483738,2147483737,2147483736,2147483735,
97,98,99,100,101,102,103,104,105,106,2147483754,2147483753,2147483752,2147483751,2147483750,2147483749,2147483748,2147483747,2147483746,98,99,100,101,102,103,104,105,106,2147483754,2147483753,2147483752,2147483751,2147483750,2147483749,2147483748,2147483747,2147483746,98,99,100,101,102,103,104,105,106,2147483754,2147483753,2147483752,2147483751,
0,0,0,0,0,0,0,0,0,0,0,0,0,0,0,0,0,0,0,0,0,0,0,0,0,0,0,0,0,0,0,0,0,0,0,0,0,0,0,0,0,0,0,0,0,0,0,0,0,0,
0,0,0,0,0,0,0,0,0,0,0,0,0,0,0,0,0,0,0,0,0,0,0,0,0,0,0,0,0,0,0,0,0,0,0,0,0,0,0,0,0,0,0,0,0,0,0,0,0,0
</data>
 </layer>
 <layer id="6" name="item" width="50" height="20">
  <data encoding="csv">
0,0,0,0,0,0,0,0,0,0,0,0,0,0,0,0,0,0,0,0,0,0,0,0,0,0,0,0,0,0,0,0,0,0,0,0,0,0,0,0,0,0,0,0,0,0,221,222,223,224,
0,0,0,0,0,0,0,0,0,0,0,0,0,0,0,0,0,0,0,0,0,0,0,0,0,0,0,0,0,0,0,0,0,0,0,0,0,0,0,0,0,0,0,0,0,0,237,238,239,240,
0,0,0,0,0,0,0,0,0,0,0,0,0,0,0,0,0,0,0,0,0,0,0,0,0,0,0,0,0,0,0,0,0,0,0,0,0,0,0,0,0,0,0,0,200,201,253,254,255,256,
0,0,0,0,0,0,0,0,0,0,0,0,0,0,0,0,0,0,0,0,0,0,0,0,0,0,0,0,0,0,0,0,0,0,0,0,0,0,0,0,0,0,0,0,216,217,218,270,271,272,
0,0,0,0,0,0,0,0,0,0,0,0,0,0,0,0,0,0,221,222,223,224,0,268,269,0,221,222,223,224,0,0,0,0,0,0,0,0,0,0,0,0,0,0,232,233,234,0,0,0,
0,0,0,0,0,0,0,0,0,170,171,172,173,174,0,0,0,0,237,238,239,240,283,284,285,286,237,238,239,240,0,2147483824,2147483823,175,176,0,0,0,0,0,0,0,0,0,248,249,250,0,0,0,
0,0,0,0,0,0,0,0,0,186,187,188,189,190,0,0,0,0,253,254,255,256,299,300,301,302,253,254,255,256,0,2147483840,2147483839,191,192,0,0,0,0,0,0,0,0,0,264,265,266,0,0,0,
0,0,0,0,0,0,0,0,0,202,203,204,205,206,209,0,271,2147483857,269,270,271,272,315,316,317,318,183,270,271,209,0,2147483856,2147483855,207,208,0,0,0,0,0,0,0,0,0,1073742088,1073742089,1073742090,0,0,0,
0,0,0,0,0,0,0,0,0,231,0,0,0,0,225,0,0,2147483873,0,0,0,0,0,0,0,0,199,0,0,225,0,0,0,0,0,0,0,0,0,0,0,0,0,0,1073742072,1073742073,1073742074,0,0,0,
0,0,0,0,0,0,0,0,0,1073742055,0,0,0,0,241,0,0,3221225697,0,0,0,0,0,0,0,0,215,0,0,241,0,0,0,0,0,0,0,0,0,221,222,223,224,0,1073742056,1073742057,1073742058,0,0,0,
0,0,0,0,0,0,0,0,2147483906,1073742039,0,258,0,0,0,0,0,2147483873,0,0,0,0,0,0,0,0,231,0,0,0,0,0,0,0,0,0,0,0,0,237,238,239,240,0,232,233,234,0,0,0,
0,0,0,0,0,0,0,0,209,0,0,274,0,221,222,223,224,3221225697,0,0,0,258,0,0,0,0,247,0,0,0,0,0,0,0,0,3221225747,183,0,1073742099,253,254,255,256,0,248,249,250,0,0,0,
0,0,0,0,0,0,0,0,225,0,0,0,0,237,238,239,240,2147483873,0,0,0,274,183,0,0,0,209,0,0,209,1073742099,0,0,0,0,3221225730,199,0,1073742082,0,270,271,272,0,264,265,266,0,0,0,
0,0,0,0,0,0,0,0,241,0,0,0,0,253,254,255,256,2147483889,0,0,0,0,199,0,0,0,225,0,0,225,1073742082,0,0,0,0,0,1073742023,0,0,0,0,0,0,0,1073742088,1073742089,1073742090,0,0,0,
0,0,0,0,0,0,0,0,33,0,0,0,0,0,270,271,272,0,0,0,0,0,215,0,0,0,1073742049,0,0,241,0,0,0,0,0,0,0,0,0,0,0,0,0,0,1073742072,1073742073,1073742074,0,0,0,
0,0,33,0,0,0,0,0,0,0,0,0,0,0,0,0,0,0,0,0,0,0,231,0,0,0,225,0,0,0,0,0,0,0,0,0,0,0,0,0,0,0,0,0,1073742056,1073742057,1073742058,1073742082,0,0,
0,0,0,0,0,0,2147483816,2147483815,0,0,0,167,168,0,0,0,0,0,0,0,0,0,247,0,167,168,241,0,0,0,0,0,0,0,0,0,0,0,0,258,2147483906,0,2147483816,2147483815,232,233,234,0,0,0,
0,0,0,0,0,0,0,0,0,0,0,0,0,0,0,0,0,0,0,0,0,0,0,0,0,0,0,0,0,0,0,0,0,0,0,0,0,0,0,274,2147483923,0,0,295,248,249,250,0,0,0,
0,0,0,0,0,0,0,0,0,0,0,0,0,0,0,0,0,0,0,0,0,0,0,0,0,0,0,0,0,0,0,0,0,0,0,0,0,0,0,0,0,0,0,0,264,265,266,0,0,0,
0,0,0,0,0,0,0,0,0,0,0,0,0,0,0,0,0,0,0,0,0,0,0,0,0,0,0,0,0,0,0,0,0,0,0,0,0,0,0,0,0,0,0,279,280,281,282,0,0,0
</data>
 </layer>
 <objectgroup id="16" name="Items">
  <object id="12" gid="2147483859" x="1.5" y="910" width="88" height="86"/>
  <object id="13" gid="2147483859" x="414" y="454" width="89" height="84"/>
  <object id="14" gid="211" x="2394.91" y="711.727" width="87" height="82"/>
  <object id="15" gid="242" x="643.333" y="460.667" width="64" height="64"/>
  <object id="17" gid="226" x="111.5" y="908.5" width="64" height="64"/>
  <object id="18" gid="2147483799" x="1169.67" y="462" width="64" height="64"/>
  <object id="20" gid="257" x="854.667" y="920" width="64" height="64"/>
  <object id="23" gid="2147483905" x="1725.33" y="1060" width="64" height="64"/>
  <object id="24" gid="257" x="3066.67" y="921.333" width="64" height="64"/>
  <object id="25" gid="257" x="2999.25" y="218.25" width="118.333" height="119.833"/>
  <object id="26" gid="2147483905" x="2343" y="1042.5" width="89" height="91.5"/>
  <object id="28" gid="2147483938" x="1472" y="775.333" width="64" height="64"/>
  <object id="29" gid="290" x="432.667" y="716.667" width="64" height="64"/>
  <object id="30" gid="2147483954" x="1574" y="467.333" width="64" height="64"/>
  <object id="31" gid="2147483954" x="1193.33" y="1042.67" width="64" height="64"/>
  <object id="32" gid="306" x="967.333" y="1071.33" width="64" height="64"/>
  <object id="33" gid="306" x="760" y="716.667" width="64" height="64"/>
  <object id="34" gid="306" x="1808.67" y="784" width="64" height="64"/>
  <object id="35" gid="306" x="2268.67" y="718" width="64" height="64"/>
  <object id="37" gid="307" x="2021.33" y="1070.67" width="64" height="64"/>
  <object id="38" gid="2147483955" x="1597.33" y="782.667" width="64" height="64"/>
  <object id="39" gid="310" x="2201.33" y="909.333" width="64" height="64"/>
  <object id="40" gid="310" x="2030.67" y="468" width="64" height="64"/>
  <object id="41" gid="310" x="1292" y="1065.33" width="64" height="64"/>
  <object id="42" gid="310" x="753.333" y="922.667" width="64" height="64"/>
  <object id="43" gid="307" x="1018.67" y="918.667" width="64" height="64"/>
 </objectgroup>
</map>
