<?xml version="1.0" encoding="UTF-8"?>
<map version="1.10" tiledversion="1.12.2" orientation="orthogonal" renderorder="right-down" width="64" height="32" tilewidth="64" tileheight="64" infinite="0" nextlayerid="10" nextobjectid="1">
 <tileset firstgid="1" source="stalactiteCave.tsx"/>
 <layer id="5" name="MediumShotLayer_1" width="64" height="32" parallaxx="0.75">
  <data encoding="csv">
0,0,0,0,0,0,0,0,0,0,0,0,0,0,726,727,728,729,730,731,732,733,734,735,736,0,0,0,0,0,0,0,0,1073742487,1073742488,1073742489,1073742490,1073742491,1073742492,1073742493,1073742494,1073742495,0,0,0,0,0,0,0,0,0,0,0,0,1073742455,1073742456,1073742457,1073742458,1073742459,1073742460,1073742461,1073742462,1073742463,0,
0,0,0,0,0,0,0,0,0,0,0,0,0,0,758,759,760,761,762,763,764,765,766,767,768,0,0,0,0,0,0,0,0,1073742455,1073742456,1073742457,1073742458,1073742459,1073742460,1073742461,1073742462,1073742463,0,0,0,0,0,0,0,0,0,0,0,0,1073742423,1073742424,1073742425,1073742426,1073742427,1073742428,1073742429,1073742430,1073742431,0,
0,0,0,0,0,0,0,0,0,0,0,0,0,0,1073742582,1073742583,1073742584,1073742585,1073742586,1073742587,1073742588,1073742589,1073742590,1073742591,1073742592,0,0,0,0,0,0,0,0,1073742423,1073742424,1073742425,1073742426,1073742427,1073742428,1073742429,1073742430,1073742431,0,0,0,0,0,0,0,0,0,0,0,0,1073742391,1073742392,1073742393,1073742394,1073742395,1073742396,1073742397,1073742398,1073742399,0,
0,0,0,0,0,0,0,0,0,0,0,0,0,0,1073742550,1073742551,1073742552,1073742553,1073742554,1073742555,1073742556,1073742557,1073742558,1073742559,1073742560,0,0,0,0,0,0,0,0,1073742391,1073742392,1073742393,1073742394,1073742395,1073742396,1073742397,1073742398,1073742399,0,0,0,0,0,0,0,0,0,0,0,0,567,568,569,570,571,572,573,574,575,0,
0,0,0,0,0,0,0,0,0,0,0,0,0,0,1073742518,1073742519,1073742520,1073742521,1073742522,1073742523,1073742524,1073742525,1073742526,1073742527,1073742528,0,0,0,0,0,0,0,0,567,568,569,570,571,572,573,574,575,0,0,0,0,0,0,0,0,0,0,0,0,599,600,601,602,603,604,605,606,607,0,
0,0,0,0,0,0,0,0,0,0,0,0,0,0,1073742486,1073742487,1073742488,1073742489,1073742490,1073742491,1073742492,1073742493,1073742494,1073742495,1073742496,0,0,0,0,0,0,0,0,599,600,601,602,603,604,605,606,607,0,0,0,0,0,0,0,0,0,0,0,0,631,632,633,634,635,636,637,638,639,0,
0,0,0,0,0,0,0,0,0,0,0,0,0,0,1073742454,1073742455,1073742456,1073742457,1073742458,1073742459,1073742460,1073742461,1073742462,1073742463,1073742464,0,0,0,0,0,0,0,0,631,632,633,634,635,636,637,638,639,0,0,0,0,0,0,0,0,0,0,0,0,663,664,665,666,667,668,669,670,671,0,
0,0,0,0,0,0,0,0,0,0,0,0,0,0,1073742422,1073742423,1073742424,1073742425,1073742426,1073742427,1073742428,1073742429,1073742430,1073742431,1073742432,0,0,0,0,0,0,0,0,663,664,665,666,667,668,669,670,671,0,0,0,0,0,0,0,0,0,0,0,0,695,696,697,698,699,700,701,702,703,0,
0,0,0,0,0,0,0,0,0,0,0,0,0,0,1073742390,1073742391,1073742392,1073742393,1073742394,1073742395,1073742396,1073742397,1073742398,1073742399,1073742400,0,0,0,0,0,0,0,0,695,696,697,698,699,700,701,702,703,0,0,0,0,0,0,0,0,0,0,0,0,727,728,729,730,731,732,733,734,735,0,
0,0,0,0,0,0,0,0,0,0,0,0,0,0,566,567,568,569,570,571,572,573,574,575,576,0,0,0,0,0,0,0,0,727,728,729,730,731,732,733,734,735,0,0,0,0,0,0,0,0,0,0,0,0,759,760,761,762,763,764,765,766,767,0,
0,0,0,0,0,0,0,0,0,0,0,0,0,0,598,599,600,601,602,603,604,605,606,607,608,0,0,0,0,0,0,0,0,759,760,761,762,763,764,765,766,767,0,0,0,0,0,0,0,0,0,0,0,0,1073742583,1073742584,1073742585,1073742586,1073742587,1073742588,1073742589,1073742590,1073742591,0,
0,0,0,0,0,0,0,0,0,0,0,0,0,0,630,631,632,633,634,635,636,637,638,639,640,0,0,0,0,0,0,0,0,1073742583,1073742584,1073742585,1073742586,1073742587,1073742588,1073742589,1073742590,1073742591,0,0,0,0,0,0,0,0,0,0,0,0,1073742551,1073742552,1073742553,1073742554,1073742555,1073742556,1073742557,1073742558,1073742559,0,
0,0,0,0,0,0,0,0,0,0,0,0,0,0,662,663,664,665,666,667,668,669,670,671,672,0,0,0,0,0,0,0,0,1073742551,1073742552,1073742553,1073742554,1073742555,1073742556,1073742557,1073742558,1073742559,0,0,0,0,0,0,0,0,0,0,0,0,1073742519,1073742520,1073742521,1073742522,1073742523,1073742524,1073742525,1073742526,1073742527,0,
0,0,0,0,0,0,0,0,0,0,0,0,0,0,694,695,696,697,698,699,700,701,702,703,704,0,0,0,0,0,0,0,0,1073742519,1073742520,1073742521,1073742522,1073742523,1073742524,1073742525,1073742526,1073742527,0,0,0,0,0,0,0,0,0,0,0,0,1073742487,1073742488,1073742489,1073742490,1073742491,1073742492,1073742493,1073742494,1073742495,0,
0,0,0,0,0,0,0,0,0,0,0,0,0,0,726,727,728,729,730,731,732,733,734,735,736,0,0,0,0,0,0,0,0,1073742487,1073742488,1073742489,1073742490,1073742491,1073742492,1073742493,1073742494,1073742495,0,0,0,0,0,0,0,0,0,0,0,0,1073742455,1073742456,1073742457,1073742458,1073742459,1073742460,1073742461,1073742462,1073742463,0,
0,0,0,0,0,0,0,0,0,0,0,0,0,0,758,759,760,761,762,763,764,765,766,767,768,0,0,0,0,0,0,0,0,1073742455,1073742456,1073742457,1073742458,1073742459,1073742460,1073742461,1073742462,1073742463,0,0,0,0,0,0,0,0,0,0,0,0,1073742423,1073742424,1073742425,1073742426,1073742427,1073742428,1073742429,1073742430,1073742431,0,
0,0,0,0,0,0,0,0,0,0,0,0,0,0,1073742582,1073742583,1073742584,1073742585,1073742586,1073742587,1073742588,1073742589,1073742590,1073742591,1073742592,0,0,0,0,0,0,0,0,1073742423,1073742424,1073742425,1073742426,1073742427,1073742428,1073742429,1073742430,1073742431,0,0,0,0,0,0,0,0,0,0,0,0,1073742391,1073742392,1073742393,1073742394,1073742395,1073742396,1073742397,1073742398,1073742399,0,
0,0,0,0,0,0,0,0,0,0,0,0,0,0,1073742550,1073742551,1073742552,1073742553,1073742554,1073742555,1073742556,1073742557,1073742558,1073742559,1073742560,0,0,0,0,0,0,0,0,1073742391,1073742392,1073742393,1073742394,1073742395,1073742396,1073742397,1073742398,1073742399,0,0,0,0,0,0,0,0,0,564,565,566,567,568,569,570,571,572,573,574,575,576,
0,0,0,0,0,0,0,0,0,0,0,0,0,0,1073742518,1073742519,1073742520,1073742521,1073742522,1073742523,1073742524,1073742525,1073742526,1073742527,1073742528,0,0,0,0,0,0,0,0,567,568,569,570,571,572,573,574,575,0,0,0,0,0,0,0,0,0,596,597,598,599,600,601,602,603,604,605,606,607,608,
0,0,0,0,0,0,0,0,0,0,0,0,0,0,1073742486,1073742487,1073742488,1073742489,1073742490,1073742491,1073742492,1073742493,1073742494,1073742495,1073742496,0,0,0,0,0,0,0,0,599,600,601,602,603,604,605,606,607,0,0,0,0,0,0,0,0,0,628,629,630,631,632,633,634,635,636,637,638,639,640,
0,0,0,0,0,0,0,0,0,0,0,0,0,0,1073742454,1073742455,1073742456,1073742457,1073742458,1073742459,1073742460,1073742461,1073742462,1073742463,1073742464,0,0,0,0,0,0,0,0,631,632,633,634,635,636,637,638,639,0,0,0,0,0,0,0,0,0,660,661,662,663,664,665,666,667,668,669,670,671,672,
0,0,0,0,0,0,0,0,0,0,0,0,0,0,1073742422,1073742423,1073742424,1073742425,1073742426,1073742427,1073742428,1073742429,1073742430,1073742431,1073742432,0,0,0,0,0,0,0,0,663,664,665,666,667,668,669,670,671,0,0,0,0,0,0,0,0,0,692,693,694,695,696,697,698,699,700,701,702,703,704,
0,0,0,0,0,0,0,0,0,0,0,0,0,0,1073742390,1073742391,1073742392,1073742393,1073742394,1073742395,1073742396,1073742397,1073742398,1073742399,1073742400,0,0,0,0,0,0,0,0,695,696,697,698,699,700,701,702,703,0,0,0,0,0,0,0,0,0,724,725,726,727,728,729,730,731,732,733,734,735,736,
0,0,0,0,0,0,0,0,0,0,0,563,564,565,566,567,568,569,570,571,572,573,574,575,576,0,0,0,0,0,0,0,0,727,728,729,730,731,732,733,734,735,0,0,0,0,0,0,0,0,0,756,757,758,759,760,761,762,763,764,765,766,767,768,
0,0,0,0,0,0,0,0,0,0,0,595,596,597,598,599,600,601,602,603,604,605,606,607,608,0,0,0,0,0,0,0,0,759,760,761,762,763,764,765,766,767,0,0,0,0,0,0,0,0,0,788,789,790,791,792,793,794,795,796,797,798,799,800,
0,0,0,0,0,0,0,0,0,0,0,627,628,629,630,631,632,633,634,635,636,637,638,639,640,0,0,0,0,0,0,0,0,1073742583,1073742584,1073742585,1073742586,1073742587,1073742588,1073742589,1073742590,1073742591,0,0,0,0,0,0,0,0,0,820,821,822,823,824,825,826,827,828,829,830,831,832,
0,0,0,0,0,0,0,0,0,0,0,659,660,661,662,663,664,665,666,667,668,669,670,671,672,0,0,0,0,0,0,0,0,1073742551,1073742552,1073742553,1073742554,1073742555,1073742556,1073742557,1073742558,1073742559,0,0,0,0,0,0,0,0,0,852,853,854,855,856,857,858,859,860,861,862,863,864,
0,0,0,0,0,0,0,0,0,0,0,691,692,693,694,695,696,697,698,699,700,701,702,703,704,0,0,0,0,0,0,0,0,1073742519,1073742520,1073742521,1073742522,1073742523,1073742524,1073742525,1073742526,1073742527,0,0,0,0,0,0,0,0,0,884,885,886,887,888,889,890,891,892,893,894,895,896,
0,0,0,0,0,0,0,0,0,0,0,723,724,725,726,727,728,729,730,731,732,733,734,735,736,0,0,0,0,0,0,0,0,1073742487,1073742488,1073742489,1073742490,1073742491,1073742492,1073742493,1073742494,1073742495,0,0,0,0,0,0,0,0,0,916,917,918,919,920,921,922,923,924,925,926,927,928,
0,0,0,0,0,0,0,0,0,0,0,755,756,757,758,759,760,761,762,763,764,765,766,767,768,0,0,0,0,0,0,0,0,1073742455,1073742456,1073742457,1073742458,1073742459,1073742460,1073742461,1073742462,1073742463,0,0,0,0,0,0,0,0,0,948,949,950,951,952,953,954,955,956,957,958,959,960,
0,0,0,0,0,0,0,0,0,0,0,787,788,789,790,791,792,793,794,795,796,797,798,799,800,0,0,0,0,0,0,0,0,1073742423,1073742424,1073742425,1073742426,1073742427,1073742428,1073742429,1073742430,1073742431,0,0,0,0,0,0,0,0,0,980,981,982,983,984,985,986,987,988,989,990,991,992,
0,0,0,0,0,0,0,0,0,0,0,819,820,821,822,823,824,825,826,827,828,829,830,831,832,0,0,0,0,0,0,0,0,1073742391,1073742392,1073742393,1073742394,1073742395,1073742396,1073742397,1073742398,1073742399,0,0,0,0,0,0,0,0,0,1012,1013,1014,1015,1016,1017,1018,1019,1020,1021,1022,1023,1024
</data>
 </layer>
 <layer id="6" name="MediumShotLayer_2" width="64" height="32" parallaxx="0.85">
  <data encoding="csv">
0,0,0,0,0,0,0,0,0,1073742498,1073742499,1073742500,1073742501,1073742502,1073742503,1073742504,1073742505,1073742506,0,0,1073742401,1073742402,1073742403,1073742404,1073742405,1073742406,1073742407,1073742408,1073742409,1073742410,1073742411,0,0,0,812,813,1073742530,1073742531,1073742532,1073742533,1073742534,1073742535,1073742536,1073742537,1073742538,1073742539,588,0,0,0,0,0,0,833,642,643,644,645,646,647,648,649,650,843,
0,0,0,0,0,0,0,0,0,1073742466,1073742467,1073742468,1073742469,1073742470,1073742471,1073742472,1073742473,1073742474,0,0,1073742369,1073742370,1073742371,1073742372,1073742373,1073742374,1073742375,1073742376,1073742377,1073742378,1073742379,0,0,0,844,845,1073742498,1073742499,1073742500,1073742501,1073742502,1073742503,1073742504,1073742505,1073742506,1073742507,620,0,0,0,0,0,0,865,674,675,676,677,678,679,680,681,682,875,
0,0,0,0,0,0,0,0,1073742817,1073742434,1073742435,1073742436,1073742437,1073742438,1073742439,1073742440,1073742441,1073742442,1073742827,1073742828,545,546,547,548,549,550,551,552,553,554,555,0,0,0,876,877,1073742466,1073742467,1073742468,1073742469,1073742470,1073742471,1073742472,1073742473,1073742474,1073742475,652,0,0,0,0,0,0,897,706,707,708,709,710,711,712,713,714,907,
0,0,0,0,0,0,0,0,1073742785,610,611,612,613,614,615,616,617,618,1073742795,1073742796,577,578,579,580,581,582,583,584,585,586,587,0,0,0,908,909,642,643,644,645,646,647,648,649,650,651,684,0,0,0,0,0,0,929,738,739,740,741,742,743,744,745,746,939,
0,0,0,0,0,0,0,0,1073742753,642,643,644,645,646,647,648,649,650,1073742763,1073742764,609,610,611,612,613,614,615,616,617,618,619,0,0,0,940,941,674,675,676,677,678,679,680,681,682,683,716,0,0,0,0,0,0,961,770,771,772,773,774,775,776,777,778,971,
0,0,0,0,0,0,0,0,1073742721,674,675,676,677,678,679,680,681,682,1073742731,1073742732,641,642,643,644,645,646,647,648,649,650,651,0,0,0,972,973,706,707,708,709,710,711,712,713,714,715,748,0,0,0,0,0,0,993,802,803,804,805,806,807,808,809,810,1003,
0,0,0,0,0,0,0,0,1073742689,706,707,708,709,710,711,712,713,714,1073742699,1073742700,673,674,675,676,677,678,679,680,681,682,683,0,0,0,1073742796,1073742797,738,739,740,741,742,743,744,745,746,747,780,0,0,0,0,0,0,1073742817,834,835,836,837,838,839,840,841,842,1073742827,
0,0,0,0,0,0,0,0,1073742657,738,739,740,741,742,743,744,745,746,1073742667,1073742668,705,706,707,708,709,710,711,712,713,714,715,0,0,0,1073742764,1073742765,770,771,772,773,774,775,776,777,778,779,812,0,0,0,0,0,0,1073742785,866,867,868,869,870,871,872,873,874,1073742795,
0,0,0,0,0,0,0,0,1073742625,770,771,772,773,774,775,776,777,778,1073742635,1073742636,737,738,739,740,741,742,743,744,745,746,747,0,0,0,1073742732,1073742733,802,803,804,805,806,807,808,809,810,811,844,0,0,0,0,0,0,1073742753,898,899,900,901,902,903,904,905,906,1073742763,
0,0,0,0,0,0,0,0,1073742593,802,803,804,805,806,807,808,809,810,1073742603,1073742604,769,770,771,772,773,774,775,776,777,778,779,0,0,0,1073742700,1073742701,834,835,836,837,838,839,840,841,842,843,876,0,0,0,0,0,0,1073742721,1073742722,1073742723,1073742724,1073742725,1073742726,1073742727,1073742728,1073742729,1073742730,1073742731,
0,0,0,0,0,0,0,0,1073742561,834,835,836,837,838,839,840,841,842,1073742571,1073742572,801,802,803,804,805,806,807,808,809,810,811,0,0,0,1073742668,1073742669,866,867,868,869,870,871,872,873,874,875,908,0,0,0,0,0,0,1073742689,1073742690,1073742691,1073742692,1073742693,1073742694,1073742695,1073742696,1073742697,1073742698,1073742699,
0,0,0,0,0,0,0,0,1073742529,1073742658,1073742659,1073742660,1073742661,1073742662,1073742663,1073742664,1073742665,1073742666,1073742539,1073742540,833,834,835,836,837,838,839,840,841,842,843,0,0,0,1073742636,1073742637,1073742690,1073742691,1073742692,1073742693,1073742694,1073742695,1073742696,1073742697,1073742698,1073742699,1073742700,0,0,0,0,0,0,1073742657,1073742658,1073742659,1073742660,1073742661,1073742662,1073742663,1073742664,1073742665,1073742666,1073742667,
0,0,0,0,0,0,0,0,1073742497,1073742626,1073742627,1073742628,1073742629,1073742630,1073742631,1073742632,1073742633,1073742634,1073742507,1073742508,1073742657,1073742658,1073742659,1073742660,1073742661,1073742662,1073742663,1073742664,1073742665,1073742666,1073742667,0,0,0,1073742604,1073742605,1073742658,1073742659,1073742660,1073742661,1073742662,1073742663,1073742664,1073742665,1073742666,1073742667,1073742668,0,0,0,0,0,0,1073742625,1073742626,1073742627,1073742628,1073742629,1073742630,1073742631,1073742632,1073742633,1073742634,1073742635,
0,0,0,0,0,0,0,0,1073742465,1073742594,1073742595,1073742596,1073742597,1073742598,1073742599,1073742600,1073742601,1073742602,1073742475,1073742476,1073742625,1073742626,1073742627,1073742628,1073742629,1073742630,1073742631,1073742632,1073742633,1073742634,1073742635,0,0,0,1073742572,1073742573,1073742626,1073742627,1073742628,1073742629,1073742630,1073742631,1073742632,1073742633,1073742634,1073742635,1073742636,0,0,0,0,0,0,1073742593,1073742594,1073742595,1073742596,1073742597,1073742598,1073742599,1073742600,1073742601,1073742602,1073742603,
0,0,0,0,0,0,0,0,1073742433,1073742562,1073742563,1073742564,1073742565,1073742566,1073742567,1073742568,1073742569,1073742570,1073742443,1073742444,1073742593,1073742594,1073742595,1073742596,1073742597,1073742598,1073742599,1073742600,1073742601,1073742602,1073742603,0,0,0,1073742540,1073742541,1073742594,1073742595,1073742596,1073742597,1073742598,1073742599,1073742600,1073742601,1073742602,1073742603,1073742604,0,0,0,0,0,0,1073742561,1073742562,1073742563,1073742564,1073742565,1073742566,1073742567,1073742568,1073742569,1073742570,1073742571,
0,0,0,0,0,0,0,0,1073742401,1073742530,1073742531,1073742532,1073742533,1073742534,1073742535,1073742536,1073742537,1073742538,1073742411,1073742412,1073742561,1073742562,1073742563,1073742564,1073742565,1073742566,1073742567,1073742568,1073742569,1073742570,1073742571,0,0,0,1073742508,1073742509,1073742562,1073742563,1073742564,1073742565,1073742566,1073742567,1073742568,1073742569,1073742570,1073742571,1073742572,0,0,0,0,0,0,1073742529,1073742530,1073742531,1073742532,1073742533,1073742534,1073742535,1073742536,1073742537,1073742538,1073742539,
0,0,0,0,0,0,0,0,0,1073742498,1073742499,1073742500,1073742501,1073742502,1073742503,1073742504,1073742505,1073742506,1073742379,1073742380,1073742529,1073742530,1073742531,1073742532,1073742533,1073742534,1073742535,1073742536,1073742537,1073742538,1073742539,0,0,0,1073742476,1073742477,1073742530,1073742531,1073742532,1073742533,1073742534,1073742535,1073742536,1073742537,1073742538,1073742539,1073742540,0,0,0,0,0,0,1073742497,1073742498,1073742499,1073742500,1073742501,1073742502,1073742503,1073742504,1073742505,1073742506,1073742507,
0,0,0,0,0,0,0,0,0,1073742466,1073742467,1073742468,1073742469,1073742470,1073742471,1073742472,1073742473,1073742474,555,556,1073742497,1073742498,1073742499,1073742500,1073742501,1073742502,1073742503,1073742504,1073742505,1073742506,1073742507,0,0,0,1073742444,1073742445,1073742498,1073742499,1073742500,1073742501,1073742502,1073742503,1073742504,1073742505,1073742506,1073742507,1073742508,0,0,0,0,0,0,1073742465,1073742466,1073742467,1073742468,1073742469,1073742470,1073742471,1073742472,1073742473,1073742474,1073742475,
0,0,0,0,0,0,0,0,577,1073742434,1073742435,1073742436,1073742437,1073742438,1073742439,1073742440,1073742441,1073742442,587,588,1073742465,1073742466,1073742467,1073742468,1073742469,1073742470,1073742471,1073742472,1073742473,1073742474,1073742475,0,0,0,620,621,1073742466,1073742467,1073742468,1073742469,1073742470,1073742471,1073742472,1073742473,1073742474,1073742475,1073742476,0,0,0,0,0,0,1073742433,1073742434,1073742435,1073742436,1073742437,1073742438,1073742439,1073742440,1073742441,1073742442,1073742443,
0,0,0,0,0,0,0,0,609,610,611,612,613,614,615,616,617,618,619,620,1073742433,1073742434,1073742435,1073742436,1073742437,1073742438,1073742439,1073742440,1073742441,1073742442,1073742443,0,0,0,652,653,1073742434,1073742435,1073742436,1073742437,1073742438,1073742439,1073742440,1073742441,1073742442,1073742443,1073742444,0,0,0,0,0,0,609,610,611,612,613,614,615,616,617,618,619,
0,0,0,0,0,0,0,0,641,642,643,644,645,646,647,648,649,650,651,652,1073742401,1073742402,1073742403,1073742404,1073742405,1073742406,1073742407,1073742408,1073742409,1073742410,1073742411,0,0,0,684,685,1073742402,1073742403,1073742404,1073742405,1073742406,1073742407,1073742408,1073742409,1073742410,1073742411,1073742412,0,0,0,0,0,0,641,642,643,644,645,646,647,648,649,650,651,
0,0,0,0,0,0,0,0,673,674,675,676,677,678,679,680,681,682,683,684,1073742369,1073742370,1073742371,1073742372,1073742373,1073742374,1073742375,1073742376,1073742377,1073742378,1073742379,0,0,0,716,717,578,579,580,581,582,583,584,585,586,587,588,0,0,0,0,0,0,673,674,675,676,677,678,679,680,681,682,683,
0,0,0,0,0,0,0,0,705,706,707,708,709,710,711,712,713,714,715,716,545,546,547,548,549,550,551,552,553,554,555,0,0,0,748,749,610,611,612,613,614,615,616,617,618,619,620,0,0,0,0,0,0,705,706,707,708,709,710,711,712,713,714,715,
0,0,0,0,0,0,0,0,737,738,739,740,741,742,743,744,745,746,747,748,577,578,579,580,581,582,583,584,585,586,587,0,0,0,780,781,642,643,644,645,646,647,648,649,650,651,652,0,0,0,0,0,0,737,738,739,740,741,742,743,744,745,746,747,
0,0,0,0,0,0,0,0,769,770,771,772,773,774,775,776,777,778,779,780,609,610,611,612,613,614,615,616,617,618,619,0,0,0,812,813,674,675,676,677,678,679,680,681,682,683,684,0,0,0,0,0,0,769,770,771,772,773,774,775,776,777,778,779,
0,0,0,0,0,0,0,0,801,802,803,804,805,806,807,808,809,810,811,812,641,642,643,644,645,646,647,648,649,650,651,0,0,0,844,845,706,707,708,709,710,711,712,713,714,715,716,0,0,0,0,0,0,801,802,803,804,805,806,807,808,809,810,811,
0,0,0,0,0,0,0,0,833,834,835,836,837,838,839,840,841,842,843,844,673,674,675,676,677,678,679,680,681,682,683,0,0,0,876,877,738,739,740,741,742,743,744,745,746,747,748,0,0,0,0,0,0,833,834,835,836,837,838,839,840,841,842,843,
0,0,0,0,0,0,0,0,865,866,867,868,869,870,871,872,873,874,875,876,705,706,707,708,709,710,711,712,713,714,715,0,0,0,908,909,770,771,772,773,774,775,776,777,778,779,780,0,0,0,0,0,0,865,866,867,868,869,870,871,872,873,874,875,
0,0,0,0,0,0,0,0,897,898,899,900,901,902,903,904,905,906,907,908,737,738,739,740,741,742,743,744,745,746,747,0,0,0,940,941,802,803,804,805,806,807,808,809,810,811,812,0,0,0,0,0,0,897,898,899,900,901,902,903,904,905,906,907,
0,0,0,0,0,0,0,0,929,930,931,932,933,934,935,936,937,938,939,940,769,770,771,772,773,774,775,776,777,778,779,0,0,0,972,973,834,835,836,837,838,839,840,841,842,843,844,0,0,0,0,0,0,929,930,931,932,933,934,935,936,937,938,939,
0,0,0,0,0,0,0,0,961,962,963,964,965,966,967,968,969,970,971,972,801,802,803,804,805,806,807,808,809,810,811,0,0,0,1004,1005,866,867,868,869,870,871,872,873,874,875,876,0,0,0,0,0,0,961,962,963,964,965,966,967,968,969,970,971,
0,0,0,0,0,0,0,0,993,994,995,996,997,998,999,1000,1001,1002,1003,1004,833,834,835,836,837,838,839,840,841,842,843,0,0,0,0,0,898,899,900,901,902,903,904,905,906,907,908,0,0,0,0,0,0,993,994,995,996,997,998,999,1000,1001,1002,1003
</data>
 </layer>
 <layer id="1" name="BG_moveLayer" width="64" height="32">
  <data encoding="csv">
12,13,14,15,2147483669,2147483668,2147483667,2147483666,2147483665,2147483664,2147483663,8,6,7,1,2,3,4,5,15,16,17,18,19,20,21,1,2,3,4,5,6,7,8,9,10,11,12,13,14,15,16,17,18,19,20,21,0,1,2,3,4,5,6,7,8,9,10,11,12,13,14,15,16,
44,45,46,47,2147483701,2147483700,2147483699,2147483698,2147483697,2147483696,2147483695,40,38,39,33,34,35,36,37,47,48,49,50,51,52,53,33,34,35,36,37,38,39,40,41,42,43,44,45,46,47,48,49,50,51,52,53,0,33,34,35,36,37,38,39,40,41,42,43,44,45,46,47,48,
76,77,78,79,2147483733,2147483732,2147483731,2147483730,2147483729,2147483728,2147483727,0,70,71,65,66,67,68,69,79,80,81,82,83,84,85,65,66,67,68,69,70,71,72,73,74,75,76,77,78,79,80,81,82,83,84,85,0,65,66,67,68,69,70,71,72,73,74,75,76,77,78,79,80,
108,109,110,111,2147483765,2147483764,2147483763,2147483762,2147483761,2147483760,2147483759,0,102,103,97,98,99,100,101,111,112,113,114,115,116,117,97,98,99,100,101,102,103,104,105,106,107,108,109,110,111,112,113,114,115,116,117,0,97,98,99,100,101,102,103,104,105,106,107,108,109,110,111,112,
140,141,142,143,0,0,0,0,0,0,0,0,134,135,0,0,0,0,0,0,0,0,0,0,0,0,129,130,131,132,133,134,135,136,137,138,139,140,141,142,143,144,145,146,147,148,149,0,129,130,131,132,133,134,135,136,137,138,139,140,141,142,143,144,
0,0,0,0,0,0,0,0,0,0,0,0,0,0,0,166,167,168,169,170,171,2147483819,2147483818,2147483817,2147483816,2147483815,2147483814,0,0,0,0,0,0,0,0,0,0,0,0,0,0,0,0,0,0,0,0,0,0,0,0,0,0,0,0,0,0,0,0,0,0,0,0,0,
0,0,0,0,0,0,0,0,0,0,0,0,0,0,0,198,199,200,201,202,203,2147483851,2147483850,2147483849,2147483848,2147483847,2147483846,0,0,161,162,163,164,165,0,0,0,0,0,0,0,0,0,0,0,0,0,0,0,161,162,163,164,165,0,0,0,0,0,0,0,0,0,0,
0,0,0,0,0,0,0,0,0,0,0,161,162,163,164,165,231,232,233,234,235,2147483883,2147483882,2147483881,2147483880,2147483879,2147483878,0,0,193,194,195,196,197,0,0,0,0,0,0,0,0,0,0,0,0,0,0,0,193,194,195,196,197,0,0,0,0,0,0,0,0,0,0,
0,0,0,0,0,0,0,0,0,0,0,193,194,195,196,197,0,0,0,0,2147483916,2147483915,2147483914,2147483913,2147483912,2147483911,2147483910,0,0,225,226,227,228,229,0,0,173,174,175,176,177,178,179,180,181,182,183,184,0,225,226,227,228,229,0,0,0,0,0,0,0,0,0,0,
0,0,0,0,0,0,0,0,0,0,0,225,226,227,228,229,0,0,0,0,0,0,0,0,0,0,0,0,0,0,0,0,0,0,0,0,205,206,207,208,209,210,211,212,213,214,215,216,0,0,0,0,0,0,0,173,174,175,176,177,178,179,180,181,
0,0,173,174,175,176,177,178,179,180,181,182,183,184,0,0,0,0,0,0,0,0,0,0,0,0,166,167,168,169,170,171,172,0,0,0,237,238,239,240,241,242,243,244,245,246,247,248,0,0,0,0,0,0,0,205,206,207,208,209,210,211,212,213,
0,0,205,206,207,208,209,210,211,212,213,214,215,216,0,0,0,0,0,0,0,0,0,0,0,0,198,199,200,201,202,203,204,0,0,0,269,270,271,272,273,274,275,276,277,278,279,280,0,0,0,0,0,0,0,237,238,239,240,241,242,243,244,245,
0,0,237,238,239,240,241,242,243,244,245,246,247,248,0,0,0,0,0,0,0,0,0,0,0,0,230,231,232,233,234,235,236,0,0,0,301,302,303,304,305,306,307,308,309,310,311,312,0,0,0,0,0,0,0,269,270,271,272,273,274,275,276,277,
0,0,269,270,271,272,273,274,275,276,277,278,279,280,0,0,0,166,167,168,169,170,171,172,0,0,262,263,264,265,266,267,268,0,0,0,0,0,0,0,0,0,0,0,0,0,0,0,0,0,0,0,0,0,0,301,302,303,304,305,306,307,308,309,
0,0,301,302,303,304,305,306,307,308,309,310,311,312,0,0,0,198,199,200,201,202,203,204,0,0,0,0,0,0,0,0,0,0,0,0,0,0,0,0,0,0,0,0,0,0,0,0,0,0,0,0,0,0,0,0,0,0,0,0,0,0,0,0,
0,0,0,0,0,0,0,0,0,0,0,0,0,0,0,0,0,230,231,232,233,234,235,236,0,0,0,0,0,0,0,0,0,0,0,0,0,0,0,0,0,0,0,0,0,0,0,0,0,0,0,0,0,0,0,0,0,0,0,0,0,0,0,0,
3221225587,3221225586,1073741938,1073741939,0,0,0,0,0,0,0,0,0,0,0,0,0,262,263,264,265,266,267,268,0,0,0,0,0,0,0,0,0,0,0,0,161,162,163,164,165,0,0,0,0,0,0,0,173,174,175,176,177,178,2147483826,2147483825,2147483824,2147483823,2147483822,2147483821,0,0,0,0,
0,0,0,0,0,0,0,1073741911,0,0,0,0,0,0,0,0,0,0,0,0,0,0,0,0,0,0,0,0,0,0,0,0,0,0,0,0,193,194,195,196,197,0,0,0,0,0,0,0,205,206,207,208,209,210,2147483858,2147483857,2147483856,2147483855,2147483854,2147483853,0,0,0,0,
0,0,0,0,0,0,0,0,0,0,0,0,0,0,0,0,0,0,0,0,0,0,0,0,173,174,175,176,177,178,179,180,181,182,183,184,225,226,227,228,229,0,166,167,168,2147483816,2147483815,2147483814,237,238,239,240,241,242,2147483890,2147483889,2147483888,2147483887,2147483886,2147483885,0,0,0,0,
0,0,0,0,0,0,0,0,0,0,0,0,0,0,0,0,0,0,0,0,0,0,0,0,205,206,207,208,209,210,211,212,213,214,215,216,0,0,0,0,0,0,198,199,200,2147483848,2147483847,2147483846,269,270,271,272,273,274,2147483922,2147483921,2147483920,2147483919,2147483918,2147483917,0,0,0,0,
0,0,0,0,0,0,0,0,0,0,0,173,174,175,176,177,178,179,180,181,182,183,184,0,237,238,239,240,241,242,243,244,245,246,247,248,0,0,0,0,0,0,230,231,232,2147483880,2147483879,2147483878,301,302,303,304,305,306,2147483954,2147483953,2147483952,2147483951,2147483950,2147483949,0,0,0,0,
0,0,0,0,0,161,162,163,164,165,0,205,206,207,208,209,210,211,212,213,214,215,216,0,269,270,271,272,273,274,275,276,277,278,279,280,0,0,0,0,0,0,0,0,0,0,0,0,0,0,0,0,0,0,0,0,0,0,0,0,0,0,0,0,
0,0,0,0,0,193,194,195,196,197,0,237,238,239,240,241,242,243,244,245,246,247,248,0,301,302,303,304,305,306,307,308,309,310,311,312,0,0,0,0,0,0,0,0,0,0,0,0,0,0,0,0,0,0,0,0,0,0,0,0,0,0,0,0,
0,0,0,0,0,225,226,227,228,229,0,269,270,271,272,273,274,275,276,277,278,279,280,0,0,0,0,0,0,0,0,0,0,0,0,0,0,0,0,0,0,0,0,0,0,0,0,0,0,0,0,0,0,0,0,0,0,0,0,0,0,0,0,0,
0,0,0,0,0,0,0,0,0,0,0,301,302,303,304,305,306,307,308,309,310,311,312,0,0,0,0,316,317,318,319,0,0,2147483967,2147483966,2147483965,317,2147483965,2147483964,0,0,0,0,0,0,0,0,0,0,0,0,0,0,0,0,0,0,0,0,0,0,0,0,0,
321,322,323,324,325,326,327,328,329,330,331,332,333,334,335,336,337,338,339,340,341,342,343,344,345,346,347,348,349,350,351,352,2147484000,2147483999,2147483998,2147483997,349,2147483997,2147483996,2147483993,2147483992,2147483991,2147483990,2147483989,2147483988,2147483987,2147483986,2147483985,2147483984,2147483983,2147483982,2147483981,2147483980,2147483979,2147483978,2147483977,2147483976,2147483975,2147483974,2147483973,2147483972,2147483971,2147483970,2147483969,
353,354,355,356,357,358,359,360,361,362,363,364,365,366,367,368,369,370,371,372,373,374,375,376,377,378,379,380,381,382,383,384,2147484032,2147484031,2147484030,2147484029,2147484028,2147484027,2147484026,2147484025,2147484024,2147484023,2147484022,2147484021,2147484020,2147484019,2147484018,2147484017,2147484016,2147484015,2147484014,2147484013,2147484012,2147484011,2147484010,2147484009,2147484008,2147484007,2147484006,2147484005,2147484004,2147484003,2147484002,2147484001,
385,386,387,388,389,390,391,392,393,394,395,396,397,398,399,400,401,402,403,404,405,406,407,408,409,410,411,412,413,414,415,416,2147484064,2147484063,2147484062,2147484061,2147484060,2147484059,2147484058,2147484057,2147484056,2147484055,2147484054,2147484053,2147484052,2147484051,2147484050,2147484049,2147484048,2147484047,2147484046,2147484045,2147484044,2147484043,2147484042,2147484041,2147484040,2147484039,2147484038,2147484037,2147484036,2147484035,2147484034,2147484033,
417,418,419,420,421,422,423,424,425,426,427,428,429,430,431,432,433,434,435,436,437,438,439,440,441,442,443,444,445,446,447,448,2147484096,2147484095,2147484094,2147484093,2147484092,2147484091,2147484090,2147484089,2147484088,2147484087,2147484086,2147484085,2147484084,2147484083,2147484082,2147484081,2147484080,2147484079,2147484078,2147484077,2147484076,2147484075,2147484074,2147484073,2147484072,2147484071,2147484070,2147484069,2147484068,2147484067,2147484066,2147484065,
449,450,451,452,453,454,455,456,457,458,459,460,461,462,463,464,465,466,467,468,469,470,471,472,473,474,475,476,477,478,479,480,2147484128,2147484127,2147484126,2147484125,2147484124,2147484123,2147484122,2147484121,2147484120,2147484119,2147484118,2147484117,2147484116,2147484115,2147484114,2147484113,2147484112,2147484111,2147484110,2147484109,2147484108,2147484107,2147484106,2147484105,2147484104,2147484103,2147484102,2147484101,2147484100,2147484099,2147484098,2147484097,
481,482,483,484,485,486,487,488,489,490,491,492,493,494,495,496,497,498,499,500,501,502,503,504,505,506,507,508,509,510,511,512,2147484160,2147484159,2147484158,2147484157,2147484156,2147484155,2147484154,2147484153,2147484152,2147484151,2147484150,2147484149,2147484148,2147484147,2147484146,2147484145,2147484144,2147484143,2147484142,2147484141,2147484140,2147484139,2147484138,2147484137,2147484136,2147484135,2147484134,2147484133,2147484132,2147484131,2147484130,2147484129,
513,514,515,516,517,518,519,520,521,522,523,524,525,526,527,528,529,530,531,532,533,534,535,536,537,538,539,540,541,542,543,544,2147484192,2147484191,2147484190,2147484189,2147484188,2147484187,2147484186,2147484185,2147484184,2147484183,2147484182,2147484181,2147484180,2147484179,2147484178,2147484177,2147484176,2147484175,2147484174,2147484173,2147484172,2147484171,2147484170,2147484169,2147484168,2147484167,2147484166,2147484165,2147484164,2147484163,2147484162,2147484161
</data>
 </layer>
 <layer id="8" name="moveLayer" width="64" height="32">
  <data encoding="csv">
0,0,0,0,0,0,0,0,0,0,0,0,0,0,0,0,0,0,0,0,0,0,0,0,0,0,0,0,0,0,0,0,0,0,0,0,0,0,0,0,0,0,0,0,0,0,0,0,0,0,0,0,0,0,0,0,0,0,0,0,0,0,0,0,
0,0,0,0,0,0,0,0,0,0,0,0,0,0,0,0,0,0,0,0,0,0,0,0,0,0,0,0,0,0,0,0,0,0,0,0,0,0,0,0,0,0,0,0,0,0,0,0,0,0,0,0,0,0,0,0,0,0,0,0,0,0,0,0,
0,0,0,0,0,0,0,0,0,0,0,0,0,0,0,0,0,0,0,0,0,0,0,0,0,0,0,0,0,0,0,0,0,0,0,0,0,0,0,0,0,0,0,0,0,0,0,0,0,0,0,0,0,0,0,0,0,0,0,0,0,0,0,0,
0,0,0,0,0,0,0,0,0,0,0,0,0,0,0,0,0,0,0,0,0,0,0,0,0,0,0,0,0,0,0,0,0,0,0,0,0,0,0,0,0,0,0,0,0,0,0,0,0,0,0,0,0,0,0,0,0,0,0,0,0,0,0,0,
0,0,0,0,0,0,0,0,0,0,0,0,0,0,0,0,0,0,0,0,0,0,0,0,0,0,0,0,0,0,0,0,0,0,0,0,0,0,0,0,0,0,0,0,0,0,0,0,0,0,0,0,0,0,0,0,0,0,0,0,0,0,0,0,
0,0,0,0,0,0,0,0,0,0,0,0,0,0,0,0,0,0,0,0,0,0,0,0,0,0,0,0,0,0,0,0,0,0,0,0,0,0,0,0,0,0,0,0,0,0,0,0,0,0,0,0,0,0,0,0,0,0,0,0,0,0,0,0,
0,0,0,0,0,0,0,0,0,0,0,0,0,0,0,198,199,200,201,202,203,2147483851,2147483850,2147483849,2147483848,2147483847,2147483846,0,0,0,0,0,0,0,0,0,0,0,0,0,0,0,0,0,0,0,0,0,0,0,0,0,0,0,0,0,0,0,0,0,0,0,0,0,
0,0,0,0,0,0,0,0,0,0,0,0,0,0,0,0,0,0,0,0,0,0,0,0,0,0,0,0,0,193,194,195,196,197,0,0,0,0,0,0,0,0,0,0,0,0,0,0,0,193,194,195,196,197,0,0,0,0,0,0,0,0,0,0,
0,0,0,0,0,0,0,0,0,0,0,193,194,195,196,197,0,0,0,0,0,0,0,0,0,0,0,0,0,0,0,0,0,0,0,0,0,0,0,0,0,0,0,0,0,0,0,0,0,0,0,0,0,0,0,0,0,0,0,0,0,0,0,0,
0,0,0,0,0,0,0,0,0,0,0,0,0,0,0,0,0,0,0,0,0,0,0,0,0,0,0,0,0,0,0,0,0,0,0,0,205,206,207,208,209,210,211,212,213,214,215,216,0,0,0,0,0,0,0,0,0,0,0,0,0,0,0,0,
0,0,0,0,0,0,0,0,0,0,0,0,0,0,0,0,0,0,0,0,0,0,0,0,0,0,0,0,0,0,0,0,0,0,0,0,0,0,0,0,0,0,0,0,0,0,0,0,0,0,0,0,0,0,0,205,206,207,208,209,210,211,212,213,
0,0,205,206,207,208,209,210,211,212,213,214,215,216,0,0,0,0,0,0,0,0,0,0,0,0,198,199,200,201,202,203,204,0,0,0,0,0,0,0,0,0,0,0,0,0,0,0,0,0,0,0,0,0,0,0,0,0,0,0,0,0,0,0,
0,0,0,0,0,0,0,0,0,0,0,0,0,0,0,0,0,0,0,0,0,0,0,0,0,0,0,0,0,0,0,0,0,0,0,0,0,0,0,0,0,0,0,0,0,0,0,0,0,0,0,0,0,0,0,0,0,0,0,0,0,0,0,0,
0,0,0,0,0,0,0,0,0,0,0,0,0,0,0,0,0,0,0,0,0,0,0,0,0,0,0,0,0,0,0,0,0,0,0,0,0,0,0,0,0,0,0,0,0,0,0,0,0,0,0,0,0,0,0,0,0,0,0,0,0,0,0,0,
0,0,0,0,0,0,0,0,0,0,0,0,0,0,0,0,0,198,199,200,201,202,203,204,0,0,0,0,0,0,0,0,0,0,0,0,0,0,0,0,0,0,0,0,0,0,0,0,0,0,0,0,0,0,0,0,0,0,0,0,0,0,0,0,
0,0,0,0,0,0,0,0,0,0,0,0,0,0,0,0,0,0,0,0,0,0,0,0,0,0,0,0,0,0,0,0,0,0,0,0,0,0,0,0,0,0,0,0,0,0,0,0,0,0,0,0,0,0,0,0,0,0,0,0,0,0,0,0,
0,0,0,0,0,0,0,0,0,0,0,0,0,0,0,0,0,0,0,0,0,0,0,0,0,0,0,0,0,0,0,0,0,0,0,0,0,0,0,0,0,0,0,0,0,0,0,0,0,0,0,0,0,0,0,0,0,0,0,0,0,0,0,0,
0,0,0,0,0,0,0,0,0,0,0,0,0,0,0,0,0,0,0,0,0,0,0,0,0,0,0,0,0,0,0,0,0,0,0,0,193,194,195,196,197,0,0,0,0,0,0,0,205,206,207,208,209,210,211,212,213,214,215,216,0,0,0,0,
0,0,0,0,0,0,0,0,0,0,0,0,0,0,0,0,0,0,0,0,0,0,0,0,0,0,0,0,0,0,0,0,0,0,0,0,0,0,0,0,0,0,0,0,0,0,0,0,0,0,0,0,0,0,0,0,0,0,0,0,0,0,0,0,
0,0,0,0,0,0,0,0,0,0,0,0,0,0,0,0,0,0,0,0,0,0,0,0,205,206,207,208,209,210,211,212,213,214,215,216,0,0,0,0,0,0,198,199,200,2147483848,2147483847,2147483846,0,0,0,0,0,0,0,0,0,0,0,0,0,0,0,0,
0,0,0,0,0,0,0,0,0,0,0,0,0,0,0,0,0,0,0,0,0,0,0,0,0,0,0,0,0,0,0,0,0,0,0,0,0,0,0,0,0,0,0,0,0,0,0,0,0,0,0,0,0,0,0,0,0,0,0,0,0,0,0,0,
0,0,0,0,0,0,0,0,0,0,0,205,206,207,208,209,210,211,212,213,214,215,216,0,0,0,0,0,0,0,0,0,0,0,0,0,0,0,0,0,0,0,0,0,0,0,0,0,0,0,0,0,0,0,0,0,0,0,0,0,0,0,0,0,
0,0,0,0,0,193,194,195,196,197,0,0,0,0,0,0,0,0,0,0,0,0,0,0,0,0,0,0,0,0,0,0,0,0,0,0,0,0,0,0,0,0,0,0,0,0,0,0,0,0,0,0,0,0,0,0,0,0,0,0,0,0,0,0,
0,0,0,0,0,0,0,0,0,0,0,0,0,0,0,0,0,0,0,0,0,0,0,0,0,0,0,0,0,0,0,0,0,0,0,0,0,0,0,0,0,0,0,0,0,0,0,0,0,0,0,0,0,0,0,0,0,0,0,0,0,0,0,0,
0,0,0,0,0,0,0,0,0,0,0,0,0,0,0,0,0,0,0,0,0,0,0,0,0,0,0,0,0,0,0,0,0,0,0,0,0,0,0,0,0,0,0,0,0,0,0,0,0,0,0,0,0,0,0,0,0,0,0,0,0,0,0,0,
0,0,0,0,0,0,0,0,0,0,0,0,0,0,0,0,0,0,0,0,0,0,0,0,0,0,0,348,349,350,351,0,0,348,349,350,2147483998,2147483997,2147483996,0,0,0,0,0,0,0,0,0,0,0,0,0,0,0,0,0,0,0,0,0,0,0,0,0,
353,354,355,356,357,0,0,0,0,0,0,0,0,0,0,0,0,0,0,372,373,374,375,376,377,0,0,0,0,0,0,0,0,0,0,0,0,0,0,2147484025,2147484024,2147484023,2147484022,2147484021,2147484020,0,0,0,0,0,0,0,0,0,0,0,0,0,0,2147484005,2147484004,2147484003,2147484002,2147484001,
0,0,0,0,0,0,0,0,0,394,395,396,397,398,399,0,0,0,0,0,0,0,0,0,0,0,0,0,0,0,415,416,2147484064,2147484063,0,0,0,0,0,0,0,0,0,0,0,0,0,0,0,2147484047,2147484046,2147484045,2147484044,2147484043,2147484042,0,0,0,0,0,0,0,0,0,
0,0,0,0,421,422,423,424,425,0,0,0,0,0,0,0,0,0,0,0,0,0,0,0,441,442,443,444,445,0,0,0,0,0,0,2147484093,2147484092,2147484091,2147484090,2147484089,0,0,0,0,0,0,0,0,0,0,0,0,0,0,0,2147484073,2147484072,2147484071,2147484070,2147484069,0,0,0,0,
0,0,0,0,0,0,0,0,0,0,0,0,0,0,463,464,465,466,467,468,469,0,0,0,0,0,0,0,0,0,0,0,0,0,0,0,0,0,0,0,0,0,0,0,2147484116,2147484115,2147484114,2147484113,2147484112,2147484111,0,0,0,0,0,0,0,0,0,0,0,0,0,0,
0,0,0,0,0,0,0,0,0,0,0,0,0,0,0,0,0,0,0,0,0,0,0,0,0,0,0,0,0,0,0,0,0,0,0,0,0,0,0,0,0,0,0,0,0,0,0,0,0,0,0,0,0,0,0,0,0,0,0,0,0,0,0,0,
0,0,0,0,0,0,0,0,0,0,0,0,0,0,0,0,0,0,0,0,0,0,0,0,0,0,0,0,0,0,0,0,0,0,0,0,0,0,0,0,0,0,0,0,0,0,0,0,0,0,0,0,0,0,0,0,0,0,0,0,0,0,0,0
</data>
 </layer>
 <layer id="9" name="blockingLayer" width="64" height="32">
  <data encoding="csv">
0,0,0,0,0,0,0,0,0,0,0,0,0,0,0,0,0,0,0,0,0,0,0,0,0,0,0,0,0,0,0,0,0,0,0,0,0,0,0,0,0,0,0,0,0,0,0,0,0,0,0,0,0,0,0,0,0,0,0,0,0,0,0,0,
0,0,0,0,0,0,0,0,0,0,0,0,0,0,0,0,0,0,0,0,0,0,0,0,0,0,0,0,0,0,0,0,0,0,0,0,0,0,0,0,0,0,0,0,0,0,0,0,0,0,0,0,0,0,0,0,0,0,0,0,0,0,0,0,
0,0,0,0,0,0,0,0,0,0,0,0,0,0,0,0,0,0,0,0,0,0,0,0,0,0,0,0,0,0,0,0,0,0,0,0,0,0,0,0,0,0,0,0,0,0,0,0,0,0,0,0,0,0,0,0,0,0,0,0,0,0,0,0,
0,0,0,0,0,0,0,0,0,0,0,0,0,0,0,0,0,0,0,0,0,0,0,0,0,0,0,0,0,0,0,0,0,0,0,0,0,0,0,0,0,0,0,0,0,0,0,0,0,0,0,0,0,0,0,0,0,0,0,0,0,0,0,0,
0,0,0,0,0,0,0,0,0,0,0,0,0,0,0,0,0,0,0,0,0,0,0,0,0,0,0,0,0,0,0,0,0,0,0,0,0,0,0,0,0,0,0,0,0,0,0,0,0,0,0,0,0,0,0,0,0,0,0,0,0,0,0,0,
0,0,0,0,0,0,0,0,0,0,0,0,0,0,0,0,0,0,0,0,0,0,0,0,0,0,0,0,0,0,0,0,0,0,0,0,0,0,0,0,0,0,0,0,0,0,0,0,0,0,0,0,0,0,0,0,0,0,0,0,0,0,0,0,
0,0,0,0,0,0,0,0,0,0,0,0,0,0,0,0,0,0,0,0,0,0,0,0,0,0,0,0,0,0,0,0,0,0,0,0,0,0,0,0,0,0,0,0,0,0,0,0,0,0,0,0,0,0,0,0,0,0,0,0,0,0,0,0,
0,0,0,0,0,0,0,0,0,0,0,0,0,0,0,0,0,0,0,0,0,0,0,0,0,0,0,0,0,0,0,0,0,0,0,0,0,0,0,0,0,0,0,0,0,0,0,0,0,0,0,0,0,0,0,0,0,0,0,0,0,0,0,0,
0,0,0,0,0,0,0,0,0,0,0,0,0,0,0,0,0,0,0,0,0,0,0,0,0,0,0,0,0,0,0,0,0,0,0,0,0,2147483677,0,0,0,0,0,0,0,0,0,0,0,0,0,0,0,0,0,0,0,0,0,0,0,0,0,0,
0,0,0,0,0,0,0,0,0,0,0,0,0,0,0,0,0,0,0,0,0,0,0,0,0,0,0,0,0,0,0,0,0,0,0,0,0,0,0,0,0,0,0,0,0,0,0,0,0,0,0,0,0,0,0,0,0,0,0,0,0,0,0,0,
0,0,2147483677,0,0,0,0,0,0,0,0,0,0,0,0,0,0,0,0,0,0,0,0,0,0,0,0,0,0,0,0,0,0,0,0,0,0,0,0,0,0,0,0,0,0,0,0,0,0,0,0,0,0,0,0,0,0,0,0,0,0,0,0,0,
0,0,0,0,0,0,0,0,0,0,0,0,0,0,0,0,0,0,0,0,0,0,0,0,0,0,0,0,0,0,0,0,0,0,0,0,0,0,0,0,0,0,0,0,0,0,0,0,0,0,0,0,0,0,0,0,0,0,0,0,0,0,0,0,
0,0,0,0,0,0,0,0,0,0,0,0,0,0,0,0,0,0,0,0,0,0,0,0,0,0,0,0,0,0,0,0,0,0,0,0,0,0,0,0,0,0,0,0,0,0,0,0,0,0,0,0,0,0,0,0,0,0,0,0,0,0,0,0,
0,0,0,0,0,0,0,0,0,0,0,0,0,0,0,0,0,0,0,0,0,0,0,0,0,0,0,0,0,0,0,0,0,0,0,0,0,0,0,0,0,0,0,0,0,0,0,0,0,0,0,0,0,0,0,0,0,0,0,0,0,0,0,0,
0,0,0,0,0,0,0,0,0,0,0,0,0,0,0,0,0,0,0,0,0,0,0,0,0,0,0,0,0,0,0,0,0,0,0,0,0,0,0,0,0,0,0,0,0,0,0,0,0,0,0,0,0,0,0,0,0,0,0,0,0,0,0,0,
0,0,0,0,0,0,0,0,0,0,0,0,0,0,0,0,0,0,0,0,0,0,0,0,0,0,0,0,0,0,0,0,0,0,0,0,0,0,0,0,0,0,0,0,0,0,0,0,0,0,0,0,0,0,0,0,0,0,0,0,0,0,0,0,
0,0,0,0,0,0,0,0,0,0,0,0,0,0,0,0,0,0,0,0,0,0,0,0,0,0,0,0,0,0,0,0,0,0,0,0,0,0,0,0,0,0,0,0,0,0,0,0,0,0,0,0,0,0,0,0,0,0,0,0,0,0,0,0,
0,0,0,0,0,0,0,0,0,0,0,0,0,0,0,0,0,0,0,0,0,0,0,0,0,0,0,0,0,0,0,0,0,0,0,0,0,0,0,0,0,0,0,0,0,0,0,0,0,0,0,0,0,0,0,0,0,0,0,0,0,0,0,0,
0,0,0,0,0,0,0,0,0,0,0,0,0,0,0,0,0,0,0,0,0,0,0,0,0,0,0,0,0,0,0,0,0,0,0,0,0,0,0,0,0,0,0,0,0,0,0,0,0,0,0,0,0,0,0,0,0,0,0,0,0,0,0,0,
0,0,0,0,0,0,0,0,0,0,0,0,0,0,0,0,0,0,0,0,0,0,0,0,0,0,0,0,0,0,0,0,0,0,0,0,0,0,0,0,0,0,0,0,0,0,0,0,0,0,0,0,0,0,0,0,0,0,0,0,0,0,0,0,
0,0,0,0,0,0,0,0,0,0,0,2147483677,0,0,0,0,0,0,0,0,0,0,0,0,0,0,0,0,0,0,0,0,0,0,0,0,0,0,0,0,0,0,0,0,0,0,0,0,0,0,0,0,0,0,0,0,0,0,0,0,0,0,0,0,
0,0,0,0,0,0,0,0,0,0,0,0,0,0,0,0,0,0,0,0,0,0,0,0,0,0,0,0,0,0,0,0,0,0,0,0,0,0,0,0,0,0,0,0,0,0,0,0,0,0,0,0,0,0,0,0,0,0,0,0,0,0,0,0,
0,0,0,0,0,0,0,0,0,0,0,0,0,0,0,0,0,0,0,0,0,0,0,0,0,0,0,0,0,0,0,0,0,0,0,0,0,0,0,0,0,0,0,0,0,0,0,0,0,0,0,0,0,0,0,0,0,0,0,0,0,0,0,0,
0,0,0,0,0,0,0,0,0,0,0,0,0,0,0,0,0,0,0,0,0,0,0,0,0,0,0,0,0,0,0,0,0,0,0,0,0,0,0,0,0,0,0,0,0,0,0,0,0,0,0,0,0,0,0,0,0,0,0,0,0,0,0,0,
0,0,0,0,0,0,0,0,0,0,0,0,0,0,0,0,0,0,0,0,0,0,0,0,0,0,0,0,0,0,0,0,0,0,0,0,0,0,0,0,0,0,0,0,0,0,0,0,0,0,0,0,0,0,0,0,0,0,0,0,0,0,0,0,
0,0,0,0,0,0,0,0,0,0,0,0,0,0,0,0,0,0,0,0,0,0,0,0,0,0,0,0,0,0,0,0,0,0,0,0,0,0,0,0,0,0,0,0,0,0,0,0,0,0,0,0,0,0,0,0,0,0,0,0,0,0,0,0,
0,0,0,0,0,0,0,0,0,0,0,0,0,0,0,0,0,0,0,0,0,0,0,0,0,0,0,0,0,0,0,0,0,0,0,0,0,0,0,0,0,0,0,0,0,0,0,0,0,0,0,0,0,0,0,0,0,0,0,0,0,0,0,0,
0,0,0,29,0,0,0,0,0,0,0,0,0,0,0,0,0,0,0,0,0,0,0,2147483677,0,0,0,0,0,29,0,0,0,0,2147483677,0,0,0,0,0,2147483677,0,0,0,0,0,0,0,0,0,0,0,0,0,0,0,0,0,0,0,2147483677,0,0,0,
0,0,0,0,0,0,0,0,0,0,0,0,0,29,0,0,0,0,0,0,0,29,0,0,0,0,0,0,0,0,0,0,0,0,0,0,0,0,0,0,0,0,0,2147483677,0,0,0,0,0,0,2147483677,0,0,0,0,0,0,0,0,0,0,0,0,0,
0,0,0,0,0,0,0,0,0,0,0,0,0,0,0,0,0,0,0,0,0,0,0,0,0,0,0,0,0,0,0,0,0,0,0,0,0,0,0,0,0,0,0,0,0,0,0,0,0,0,0,0,0,0,0,0,0,0,0,0,0,0,0,0,
0,0,0,0,0,0,0,0,0,0,0,0,0,0,0,0,0,0,0,0,0,0,0,0,0,0,0,0,0,0,0,0,0,0,0,0,0,0,0,0,0,0,0,0,0,0,0,0,0,0,0,0,0,0,0,0,0,0,0,0,0,0,0,0,
0,0,0,0,0,0,0,0,0,0,0,0,0,0,0,0,0,0,0,0,0,0,0,0,0,0,0,0,0,0,0,0,0,0,0,0,0,0,0,0,0,0,0,0,0,0,0,0,0,0,0,0,0,0,0,0,0,0,0,0,0,0,0,0
</data>
 </layer>
 <layer id="7" name="climbingLayer" width="64" height="32">
  <data encoding="csv">
0,0,0,0,0,0,0,0,0,0,0,0,0,0,0,0,0,0,0,0,0,0,0,0,0,0,0,0,0,0,0,0,0,0,0,0,0,0,0,0,0,0,0,0,0,0,0,0,0,0,0,0,0,0,0,0,0,0,0,0,0,0,0,0,
0,0,0,0,0,0,0,0,0,0,0,0,0,0,0,0,0,0,0,0,0,0,0,0,0,0,0,0,0,0,0,0,0,0,0,0,0,0,0,0,0,0,0,0,0,0,0,0,0,0,0,0,0,0,0,0,0,0,0,0,0,0,0,0,
0,0,0,0,0,0,0,0,0,0,0,0,0,0,0,0,0,0,0,0,0,0,0,0,0,0,0,0,0,0,0,0,0,0,0,0,0,0,0,0,0,0,0,0,0,0,0,0,0,0,0,0,0,0,0,0,0,0,0,0,0,0,0,0,
0,0,0,0,0,0,0,0,0,0,0,0,0,0,0,0,0,0,0,0,0,0,0,0,0,0,0,0,0,0,0,0,0,0,0,0,0,0,0,0,0,0,0,0,0,0,0,0,0,0,0,0,0,0,0,0,0,0,0,0,0,0,0,0,
0,0,0,0,0,0,0,0,0,0,0,0,0,0,0,0,0,0,0,0,0,0,0,0,0,0,0,0,0,0,0,0,0,0,0,0,0,0,0,0,0,0,0,0,0,0,0,0,0,0,0,0,0,0,0,0,0,0,0,0,0,0,0,0,
0,0,0,0,0,0,0,0,0,0,0,0,0,0,0,0,0,0,0,0,0,0,0,0,0,0,0,0,0,0,0,0,0,0,0,0,0,0,0,0,0,0,0,0,0,0,0,0,0,0,0,0,0,0,0,0,0,0,0,0,0,0,0,0,
0,0,0,0,0,0,0,0,0,0,0,0,0,0,0,0,0,0,0,0,0,0,0,0,0,0,0,0,0,0,0,0,0,0,0,0,0,0,0,0,0,0,0,0,0,0,0,0,0,0,0,0,0,0,0,0,0,0,0,0,0,0,0,0,
0,0,0,0,0,0,0,0,0,0,0,0,0,0,0,0,0,0,0,0,0,0,0,0,0,0,0,0,0,0,0,0,0,0,0,0,0,0,0,0,0,0,0,0,0,0,0,0,0,0,0,0,0,0,0,0,0,0,0,0,0,0,0,0,
0,0,0,0,0,0,0,0,0,0,0,0,0,0,0,0,0,0,0,0,0,0,0,0,0,0,0,0,0,0,0,0,0,0,0,0,0,0,0,0,0,0,0,0,0,0,0,0,0,0,0,0,0,0,0,0,0,0,0,0,0,0,0,0,
0,0,0,0,0,0,0,0,0,0,0,0,0,0,0,0,0,0,0,0,0,0,0,0,0,0,0,0,0,0,0,0,0,0,0,0,0,0,128,0,0,0,0,0,127,0,0,0,0,0,0,0,0,0,0,0,0,0,0,0,0,0,0,0,
0,0,0,0,0,0,0,0,0,0,0,0,0,0,0,0,0,0,0,0,0,0,0,0,0,0,0,0,0,0,0,0,0,0,0,0,0,0,160,0,0,0,0,0,159,0,0,0,0,0,0,0,0,0,0,0,0,0,0,0,0,0,0,0,
0,0,0,126,127,0,0,0,0,0,0,0,0,0,0,0,0,0,0,0,0,0,0,0,0,0,0,0,0,0,0,127,0,0,0,0,0,0,1073741984,0,0,0,0,0,159,0,0,0,0,0,0,0,0,0,0,0,0,0,0,0,0,0,0,0,
0,0,0,158,159,0,0,0,0,0,0,0,0,0,0,0,0,0,0,0,0,0,0,0,0,0,0,0,0,0,0,159,0,0,0,0,0,0,160,0,0,0,0,0,191,0,0,0,0,0,0,0,0,0,0,0,0,0,0,0,0,0,0,0,
0,0,0,190,191,0,0,0,0,0,0,0,0,0,0,0,0,0,0,0,0,0,0,0,0,0,0,0,0,0,0,191,0,0,0,0,0,0,192,0,0,0,0,0,223,0,0,0,0,0,0,0,0,0,0,0,0,0,0,0,0,0,0,0,
0,0,0,222,223,0,0,0,0,0,0,0,0,0,0,0,0,0,128,0,0,0,0,0,0,0,0,0,0,0,0,223,0,0,0,0,0,0,224,0,0,0,0,0,255,0,0,0,0,0,0,0,0,0,0,0,0,0,0,0,0,0,0,0,
0,0,0,254,1073742047,0,0,0,0,0,0,0,0,0,0,0,0,0,160,0,0,0,0,0,0,0,0,0,0,0,0,1073742047,0,0,0,0,0,0,256,0,0,0,0,0,1073742079,0,0,0,0,0,0,0,0,0,0,0,0,0,0,0,0,0,0,0,
0,0,0,286,1073742015,0,0,0,0,0,0,0,0,0,0,0,0,0,192,0,0,0,0,0,0,0,0,0,0,0,0,223,0,0,0,0,0,0,288,0,0,0,0,0,255,0,0,0,0,0,0,0,0,0,0,0,0,0,0,0,0,0,0,0,
0,0,0,0,1073741983,0,0,0,0,0,0,0,0,0,0,0,0,0,224,0,0,0,0,0,0,0,0,0,0,0,0,255,0,0,0,0,0,0,0,0,0,0,0,0,287,0,0,0,0,0,128,0,0,0,0,0,0,0,0,0,0,0,0,0,
0,0,0,0,159,0,0,0,0,0,0,0,0,0,0,0,0,0,256,0,0,0,0,0,0,0,0,0,0,0,0,287,0,0,0,0,0,0,0,0,0,0,0,0,0,0,0,0,0,0,160,0,0,0,0,0,0,0,0,0,0,0,0,0,
0,0,0,0,191,0,0,0,0,0,0,0,0,0,0,0,0,0,288,0,0,0,0,0,0,0,0,0,128,0,0,0,0,0,0,0,0,0,0,0,0,0,0,128,0,0,0,0,0,0,192,0,0,0,0,0,0,0,0,0,0,0,0,0,
0,0,0,0,223,0,0,0,0,0,0,0,0,0,0,0,0,0,0,0,0,0,0,0,0,0,0,0,160,0,0,0,0,0,0,0,0,0,0,0,0,0,0,160,0,0,0,0,0,0,1073742016,0,0,0,0,0,0,0,0,0,0,0,0,0,
0,0,0,0,255,0,0,0,0,0,0,0,0,0,128,0,0,0,0,0,0,0,0,0,0,0,0,0,192,0,0,0,0,0,0,0,0,0,0,0,0,0,0,192,0,0,0,0,0,0,1073741984,0,0,0,0,0,0,0,0,0,0,0,0,0,
0,0,0,0,287,0,0,0,127,0,0,0,0,0,160,0,0,0,0,0,0,0,0,0,0,0,0,0,224,0,0,0,0,0,0,0,0,0,0,0,0,0,0,224,0,0,0,0,0,0,160,0,0,0,0,0,0,0,0,0,0,0,0,0,
0,0,0,0,0,0,0,0,159,0,0,0,0,0,192,0,0,0,0,0,0,0,0,0,0,0,0,0,256,0,0,0,0,0,0,0,0,0,0,0,0,0,0,256,0,0,0,0,0,0,192,0,0,0,0,0,0,0,0,0,0,0,0,0,
0,0,0,0,0,0,0,0,191,0,0,0,0,0,224,0,0,0,0,0,0,0,0,0,0,0,0,0,288,0,0,0,0,0,0,0,0,0,0,0,0,0,0,288,0,0,0,0,0,0,224,0,0,0,0,0,0,0,0,0,0,0,0,0,
0,0,0,0,0,0,0,0,223,0,0,0,0,0,256,0,0,0,0,0,0,0,0,0,0,0,0,0,0,0,0,0,0,0,0,0,0,0,0,0,0,0,0,0,0,0,0,0,0,0,256,0,0,0,0,0,0,0,0,0,0,0,0,0,
0,0,0,0,0,0,0,0,255,0,0,0,0,0,288,0,0,0,0,0,0,0,0,0,0,0,0,0,0,0,0,0,0,0,0,0,0,0,0,0,0,0,0,0,0,0,0,0,0,0,288,0,0,0,0,0,0,0,0,0,0,0,0,0,
0,0,0,0,0,0,0,0,287,0,0,0,0,0,0,0,0,0,0,0,0,0,0,0,0,0,0,0,0,0,0,0,0,0,0,0,0,0,0,0,0,0,0,0,0,0,0,0,0,0,0,0,0,0,0,0,0,0,0,0,0,0,0,0,
0,0,0,0,0,0,0,0,0,0,0,0,0,0,0,0,0,0,0,0,0,0,0,0,0,0,0,0,0,0,0,0,0,0,0,0,0,0,0,0,0,0,0,0,0,0,0,0,0,0,0,0,0,0,0,0,0,0,0,0,0,0,0,0,
0,0,0,0,0,0,0,0,0,0,0,0,0,0,0,0,0,0,0,0,0,0,0,0,0,0,0,0,0,0,0,0,0,0,0,0,0,0,0,0,0,0,0,0,0,0,0,0,0,0,0,0,0,0,0,0,0,0,0,0,0,0,0,0,
0,0,0,0,0,0,0,0,0,0,0,0,0,0,0,0,0,0,0,0,0,0,0,0,0,0,0,0,0,0,0,0,0,0,0,0,0,0,0,0,0,0,0,0,0,0,0,0,0,0,0,0,0,0,0,0,0,0,0,0,0,0,0,0,
0,0,0,0,0,0,0,0,0,0,0,0,0,0,0,0,0,0,0,0,0,0,0,0,0,0,0,0,0,0,0,0,0,0,0,0,0,0,0,0,0,0,0,0,0,0,0,0,0,0,0,0,0,0,0,0,0,0,0,0,0,0,0,0
</data>
 </layer>
 <layer id="4" name="crystal" width="64" height="32">
  <data encoding="csv">
0,0,0,0,0,0,0,0,0,0,0,0,0,0,0,0,0,0,0,0,0,0,0,0,0,0,0,0,0,0,0,0,0,0,0,0,0,0,0,0,0,0,0,0,0,0,0,0,0,0,0,0,0,0,0,0,0,0,0,0,0,0,0,0,
0,0,0,0,0,0,0,0,0,0,0,0,0,0,0,0,0,0,0,0,0,0,0,0,0,0,0,0,0,0,0,0,0,0,0,0,0,0,0,0,0,0,0,0,0,0,0,0,0,0,0,0,0,0,0,0,0,0,0,0,0,0,0,0,
0,0,0,0,0,0,0,0,0,0,0,0,0,0,0,0,0,0,0,0,0,0,0,0,0,0,0,0,0,0,0,0,0,0,0,0,0,0,0,0,0,0,0,0,0,0,0,0,0,0,0,0,0,0,0,0,0,0,0,0,0,0,0,0,
0,0,0,0,0,0,0,0,0,0,0,0,0,0,0,0,0,0,0,0,0,0,0,0,0,0,0,0,0,0,0,0,0,0,0,0,0,0,0,0,0,0,0,0,0,0,0,0,0,0,0,0,0,0,0,0,0,0,0,0,0,0,0,0,
0,0,0,0,0,0,0,0,0,0,0,0,0,0,0,0,0,0,0,0,0,0,2147483672,2147483671,2147483670,0,0,0,0,0,0,0,0,0,0,0,0,0,0,0,0,0,0,0,0,0,0,0,0,0,0,0,0,0,0,0,0,0,0,0,0,0,0,0,
0,0,0,0,0,0,0,0,0,0,0,0,0,0,0,0,0,0,0,0,0,0,2147483704,2147483703,2147483702,0,0,0,0,0,0,0,0,0,0,0,0,0,0,0,0,0,0,0,0,0,0,0,0,0,0,0,0,0,0,0,0,0,0,0,0,0,0,0,
0,0,0,0,0,0,0,0,0,0,0,0,0,0,0,0,0,0,0,0,0,0,0,0,0,0,0,0,0,0,0,0,0,0,0,0,0,0,0,0,0,0,0,0,0,0,0,0,0,0,0,0,0,0,0,0,0,0,0,0,0,0,0,0,
0,0,0,0,0,0,0,0,0,0,0,0,0,0,0,0,0,0,0,0,0,0,0,0,0,0,0,0,0,0,0,0,0,0,0,0,0,0,0,0,0,0,0,0,0,0,0,0,0,0,0,0,0,0,0,0,0,0,0,0,31,32,0,0,
0,0,0,0,0,0,0,0,0,0,0,0,0,0,0,0,0,0,0,0,0,0,0,0,0,0,0,0,0,0,0,0,0,0,0,0,0,0,0,0,61,2147483709,0,0,0,0,0,0,0,0,0,0,0,0,0,0,0,0,0,0,63,64,0,0,
0,0,0,0,0,0,0,25,26,0,0,0,0,0,0,0,0,0,0,0,0,0,0,0,0,0,0,0,0,0,0,0,0,0,0,0,0,0,0,0,0,0,0,0,0,0,0,0,0,0,0,0,0,0,0,0,0,0,0,0,95,96,0,0,
0,0,0,0,0,0,0,57,58,0,0,0,0,0,0,0,0,0,0,0,0,0,0,0,0,0,0,0,0,62,0,0,0,0,0,0,0,0,0,0,0,0,0,0,0,0,0,0,0,0,0,0,0,0,0,0,0,0,0,0,0,0,0,0,
0,0,0,0,0,0,0,0,0,0,0,0,0,0,0,0,0,0,0,0,0,0,0,0,0,0,0,0,0,0,0,0,0,0,0,0,0,0,0,0,0,0,0,0,0,0,0,0,0,0,0,0,0,0,0,0,0,0,0,0,0,0,0,0,
0,0,0,0,0,0,0,0,0,0,0,0,0,0,0,0,0,0,0,0,27,28,0,0,0,0,0,0,0,0,0,0,0,0,0,0,0,0,0,0,0,0,0,0,0,0,0,0,0,0,0,0,0,0,0,0,0,0,0,0,0,0,0,0,
0,0,0,0,0,0,0,0,0,0,0,0,0,0,0,0,0,0,0,0,59,60,0,0,0,0,0,0,0,0,0,0,0,0,0,0,0,0,0,0,0,0,0,0,0,0,0,0,0,0,0,0,0,0,0,0,0,0,0,0,0,0,0,0,
0,0,0,0,0,0,0,0,0,0,0,0,0,0,0,0,0,0,0,0,0,0,0,0,0,0,0,0,0,0,0,0,0,0,0,0,0,0,0,0,0,0,0,0,0,0,0,0,0,0,0,0,0,0,0,0,0,0,0,0,0,0,0,0,
0,0,0,0,0,0,0,0,0,0,0,0,0,0,0,0,0,0,0,0,0,0,0,0,0,0,0,0,0,0,0,0,0,0,0,0,0,0,0,0,0,0,0,0,0,0,0,0,0,0,0,0,0,0,0,0,0,27,28,0,0,0,0,0,
0,0,0,0,0,0,0,0,0,0,0,0,0,0,0,0,0,0,0,0,0,0,0,0,0,0,0,0,0,0,0,0,0,0,0,0,0,0,0,0,0,0,0,0,0,0,0,0,0,0,0,0,0,0,0,0,0,59,60,0,0,0,0,0,
0,0,0,0,0,0,0,0,0,0,0,0,0,0,0,0,0,0,0,0,0,0,0,0,0,0,0,0,0,0,0,0,0,0,0,0,0,0,0,0,0,0,0,0,0,0,0,0,0,0,0,0,0,0,0,0,0,0,0,0,0,0,0,0,
0,0,0,0,0,0,0,0,0,0,0,0,0,0,0,0,0,0,0,0,0,0,0,0,0,0,0,0,0,0,0,0,0,0,0,0,0,0,0,0,0,0,0,0,0,2147483678,0,0,0,0,0,0,0,0,0,0,0,0,0,0,0,0,0,0,
0,0,0,0,0,0,0,0,0,0,0,0,0,0,0,0,0,0,0,0,0,0,0,0,0,0,0,0,0,0,0,0,0,0,0,0,0,0,0,0,0,0,0,0,0,0,0,0,0,0,0,0,0,0,0,0,0,0,0,0,0,0,0,0,
0,0,0,0,0,0,0,0,0,0,0,0,0,0,0,0,0,0,0,0,0,0,0,0,0,0,0,0,0,0,0,0,0,0,0,0,0,0,0,0,0,0,0,0,0,0,0,0,0,0,0,0,0,0,0,0,0,0,0,0,0,0,0,0,
0,0,0,0,0,0,0,0,0,0,0,0,0,0,0,0,0,0,0,0,0,0,0,0,0,0,0,0,0,0,0,0,0,0,0,0,0,0,0,0,0,0,0,0,0,0,0,0,0,0,0,0,0,0,0,0,0,0,0,0,0,0,0,0,
0,0,0,0,0,0,0,0,0,0,0,0,0,0,0,0,0,0,0,0,0,0,0,0,0,0,0,0,0,0,0,0,0,0,0,0,0,0,0,0,0,0,0,0,0,0,0,0,0,0,0,0,0,0,0,0,0,0,0,0,0,0,0,0,
0,0,0,0,0,0,0,0,0,0,0,0,0,0,0,0,0,0,0,0,0,0,0,0,0,0,0,0,0,0,0,0,0,0,0,0,0,0,0,0,0,0,0,0,0,0,0,0,0,0,0,0,0,0,0,0,0,0,0,0,0,0,0,0,
0,0,0,0,0,0,0,0,0,0,0,0,0,0,0,0,0,0,0,0,0,0,0,0,0,0,0,0,0,0,0,0,0,0,0,0,0,0,0,0,0,0,0,0,0,0,0,0,0,0,0,0,0,0,0,0,0,0,0,0,0,0,2147483674,2147483673,
0,61,0,0,0,0,0,0,0,0,0,0,0,0,0,0,0,0,0,0,0,0,0,0,0,0,0,0,0,0,0,0,0,0,0,0,0,0,0,0,0,2147483678,0,0,0,0,0,0,0,0,0,0,0,0,0,0,0,0,0,0,0,0,2147483706,2147483705,
0,0,0,0,0,0,0,0,0,0,0,0,0,0,0,0,0,0,0,0,0,0,0,0,0,0,0,0,0,0,0,2147483678,0,0,0,0,0,0,0,0,0,0,0,0,0,0,0,0,0,0,0,0,0,0,0,0,0,0,0,0,0,0,0,0,
0,0,0,0,0,0,0,0,0,0,0,0,0,0,0,0,0,0,0,0,0,0,0,0,0,0,0,0,0,0,0,0,0,0,0,0,0,0,0,0,0,0,0,0,0,0,0,0,0,0,0,0,0,0,0,0,0,0,0,0,0,0,0,0,
0,0,0,0,0,0,0,0,0,0,0,0,0,0,0,0,0,0,0,0,0,0,0,0,0,0,0,0,0,0,0,0,0,0,0,0,0,0,0,0,0,0,0,0,0,0,0,0,0,0,0,0,0,0,0,0,0,0,0,0,0,0,0,0,
0,0,0,0,0,0,0,0,0,0,0,0,0,0,0,0,0,0,0,0,0,0,0,0,0,0,0,30,0,0,0,0,0,0,0,0,2147483678,0,0,0,0,0,0,0,0,0,0,0,0,0,0,0,0,0,0,0,0,0,0,0,0,0,0,0,
0,0,0,0,0,0,0,0,0,0,0,0,0,0,0,0,0,0,0,0,0,0,0,0,0,0,0,0,0,0,0,0,0,0,0,0,0,0,0,0,0,0,0,0,0,0,0,0,0,0,0,0,0,0,0,0,0,0,0,0,0,0,0,0,
0,0,0,0,0,0,0,0,0,0,0,0,0,0,0,0,0,0,0,0,0,0,0,0,0,0,0,0,0,0,0,0,0,0,0,0,0,0,0,0,0,0,0,0,0,0,0,0,0,0,0,0,0,0,0,0,0,0,0,0,0,0,0,0
</data>
 </layer>
</map>
